;FLAVOR:Marlin
;TIME:6666
;Filament used: 0m
;Layer height: 0.2
;MINX:2.14748e+06
;MINY:2.14748e+06
;MINZ:2.14748e+06
;MAXX:-2.14748e+06
;MAXY:-2.14748e+06
;MAXZ:-2.14748e+06

;Generated with Cura_SteamEngine 4.7.1
M104 S210
M105
M109 S210
M82 ;absolute extrusion mode
G28 ;Home
G1 Z15.0 F6000 ;Move the platform down 15mm
;Prime the extruder
G92 E0
G1 F200 E3
G92 E0
G92 E0
G92 E0
G1 F1500 E-6.5
;LAYER_COUNT:49
;LAYER:0
M107
G0 F3600 X44.166 Y36.594 Z0.3
;TYPE:SKIRT
G1 F1500 E0
G1 F1800 X45.892 Y34.454 E0.05172
G1 X46.729 Y33.356 E0.07769
G1 X47.184 Y32.776 E0.09155
G1 X47.599 Y32.33 E0.10301
G1 X48.043 Y31.928 E0.11428
G1 X49.175 Y30.932 E0.14264
G1 X51.168 Y29.075 E0.19388
G1 X53.109 Y27.162 E0.24515
G1 X54.992 Y25.198 E0.29633
G1 X56.914 Y23.074 E0.35021
G1 X57.303 Y22.632 E0.36129
G1 X57.686 Y22.256 E0.37138
G1 X58.12 Y21.942 E0.38146
G1 X58.597 Y21.696 E0.39155
G1 X59.105 Y21.524 E0.40164
G1 X59.632 Y21.428 E0.41172
G1 X60.23 Y21.401 E0.42298
G1 X69.345 Y21.4 E0.59444
G1 X70.043 Y21.41 E0.60757
G1 X70.577 Y21.458 E0.61765
G1 X71.098 Y21.584 E0.62774
G1 X71.595 Y21.787 E0.63784
G1 X72.056 Y22.061 E0.64792
G1 X72.471 Y22.4 E0.658
G1 X72.831 Y22.798 E0.6681
G1 X73.128 Y23.244 E0.67818
G1 X73.356 Y23.73 E0.68828
G1 X73.508 Y24.244 E0.69836
G1 X73.59 Y24.909 E0.71096
G1 X73.6 Y25.33 E0.71888
G1 X73.6 Y44.344 E1.07655
G1 X73.59 Y45.05 E1.08983
G1 X73.587 Y45.15 E1.09171
G1 X73.557 Y45.864 E1.10515
G1 X73.478 Y48.656 E1.15769
G1 X73.478 Y51.352 E1.20841
G1 X73.557 Y54.138 E1.26083
G1 X73.582 Y54.634 E1.27018
G1 X73.599 Y55.227 E1.28133
G1 X73.6 Y74.309 E1.64028
G1 X73.591 Y75.036 E1.65395
G1 X73.544 Y75.57 E1.66404
G1 X73.419 Y76.091 E1.67412
G1 X73.217 Y76.588 E1.68421
G1 X72.944 Y77.05 E1.6943
G1 X72.606 Y77.466 E1.70438
G1 X72.209 Y77.827 E1.71448
G1 X71.763 Y78.125 E1.72457
G1 X71.278 Y78.353 E1.73465
G1 X70.764 Y78.507 E1.74474
G1 X70.092 Y78.59 E1.75748
G1 X69.67 Y78.6 E1.76542
G1 X50.651 Y78.6 E2.12318
G1 X49.947 Y78.589 E2.13642
G1 X49.413 Y78.54 E2.14651
G1 X48.892 Y78.413 E2.1566
G1 X48.395 Y78.21 E2.16669
G1 X47.775 Y77.846 E2.18022
G1 X46.111 Y76.79 E2.21729
G1 X43.772 Y75.395 E2.26852
G1 X41.385 Y74.061 E2.31996
G1 X38.974 Y72.801 E2.37113
G1 X36.518 Y71.605 E2.42251
G1 X34.035 Y70.483 E2.47377
G1 X31.516 Y69.428 E2.52514
G1 X28.886 Y68.415 E2.57815
G1 X28.74 Y68.36 E2.58109
G1 X28.254 Y68.134 E2.59117
G1 X27.806 Y67.838 E2.60127
G1 X27.408 Y67.479 E2.61135
G1 X27.067 Y67.065 E2.62144
G1 X26.791 Y66.605 E2.63153
G1 X26.587 Y66.109 E2.64162
G1 X26.459 Y65.589 E2.65169
G1 X26.401 Y64.771 E2.66712
G1 X26.4 Y55.656 E2.83858
G1 X26.41 Y54.954 E2.85178
G1 X26.458 Y54.42 E2.86187
G1 X26.584 Y53.898 E2.87197
G1 X26.787 Y53.402 E2.88205
G1 X27.061 Y52.941 E2.89214
G1 X27.4 Y52.525 E2.90223
G1 X27.826 Y52.143 E2.913
G1 X28.457 Y51.661 E2.92793
G1 X30.623 Y49.96 E2.97974
G1 X32.72 Y48.215 E3.03106
G1 X34.76 Y46.417 E3.08221
G1 X36.757 Y44.555 E3.13357
G1 X38.694 Y42.642 E3.18478
G1 X40.594 Y40.657 E3.23646
G1 X42.394 Y38.666 E3.28695
G1 X44.166 Y36.594 E3.33824
G0 F3600 X44.468 Y36.856
G1 F1800 X46.206 Y34.702 E3.3903
G1 X47.043 Y33.603 E3.41629
G1 X47.498 Y33.023 E3.43015
G1 X47.867 Y32.627 E3.44033
G1 X48.307 Y32.229 E3.45149
G1 X49.427 Y31.243 E3.47956
G1 X51.457 Y29.352 E3.53175
G1 X53.396 Y27.441 E3.58296
G1 X55.277 Y25.479 E3.63409
G1 X57.21 Y23.343 E3.68828
G1 X57.603 Y22.896 E3.69947
G1 X57.966 Y22.544 E3.70898
G1 X58.38 Y22.253 E3.7185
G1 X58.834 Y22.031 E3.72801
G1 X59.318 Y21.884 E3.73752
G1 X59.917 Y21.81 E3.74888
G1 X60.33 Y21.8 E3.75665
G1 X69.339 Y21.8 E3.92611
G1 X70.037 Y21.81 E3.93924
G1 X70.54 Y21.857 E3.94875
G1 X71.03 Y21.983 E3.95826
G1 X71.494 Y22.185 E3.96778
G1 X71.92 Y22.457 E3.97729
G1 X72.298 Y22.792 E3.98679
G1 X72.618 Y23.183 E3.9963
G1 X72.873 Y23.62 E4.00581
G1 X73.056 Y24.091 E4.01532
G1 X73.163 Y24.585 E4.02483
G1 X73.199 Y25.24 E4.03717
G1 X73.2 Y44.338 E4.39641
G1 X73.19 Y45.044 E4.40969
G1 X73.157 Y45.853 E4.42492
G1 X73.078 Y48.645 E4.47746
G1 X73.078 Y51.363 E4.52859
G1 X73.156 Y54.127 E4.5806
G1 X73.182 Y54.645 E4.59036
G1 X73.199 Y55.238 E4.60152
G1 X73.2 Y74.304 E4.96016
G1 X73.191 Y75.031 E4.97384
G1 X73.145 Y75.534 E4.98334
G1 X73.02 Y76.024 E4.99285
G1 X72.819 Y76.488 E5.00236
G1 X72.548 Y76.915 E5.01187
G1 X72.213 Y77.294 E5.02139
G1 X71.823 Y77.615 E5.03089
G1 X71.387 Y77.871 E5.0404
G1 X70.916 Y78.054 E5.04991
G1 X70.422 Y78.162 E5.05942
G1 X69.76 Y78.199 E5.07189
G1 X50.657 Y78.2 E5.43123
G1 X49.953 Y78.189 E5.44447
G1 X49.45 Y78.141 E5.45398
G1 X48.96 Y78.014 E5.4635
G1 X48.334 Y77.719 E5.47652
G1 X47.937 Y77.476 E5.48527
G1 X46.309 Y76.441 E5.52156
G1 X43.993 Y75.06 E5.57228
G1 X41.559 Y73.7 E5.62473
G1 X39.155 Y72.444 E5.67575
G1 X36.692 Y71.245 E5.72728
G1 X34.204 Y70.121 E5.77863
G1 X31.665 Y69.058 E5.83041
G1 X29.027 Y68.041 E5.88359
G1 X28.881 Y67.986 E5.88653
G1 X28.423 Y67.771 E5.89604
G1 X28.005 Y67.486 E5.90556
G1 X27.637 Y67.139 E5.91508
G1 X27.329 Y66.739 E5.92457
G1 X27.087 Y66.295 E5.93408
G1 X26.918 Y65.819 E5.94359
G1 X26.81 Y65.081 E5.95762
G1 X26.8 Y64.67 E5.96535
G1 X26.8 Y55.661 E6.13481
G1 X26.81 Y54.959 E6.14802
G1 X26.857 Y54.456 E6.15752
G1 X26.983 Y53.966 E6.16704
G1 X27.185 Y53.503 E6.17654
G1 X27.456 Y53.076 E6.18605
G1 X27.792 Y52.698 E6.19557
G1 X28.069 Y52.461 E6.20243
G1 X28.719 Y51.965 E6.21781
G1 X30.859 Y50.284 E6.26899
G1 X32.995 Y48.506 E6.32127
G1 X35.014 Y46.726 E6.3719
G1 X37.028 Y44.849 E6.42369
G1 X38.999 Y42.902 E6.4758
G1 X40.862 Y40.955 E6.52649
G1 X42.711 Y38.911 E6.57834
G1 X44.468 Y36.856 E6.6292
G1 F1500 E0.1292
;MESH:/tmp/_4704mj9.stl
G0 F3600 X49.335 Y36.856
G0 X50.62 Y36.856
G0 X59.33 Y44.33
G0 X59.4 Y44.4
;TYPE:WALL-INNER
G1 F1500 E6.6292
G1 F1800 X59.4 Y55.6 E6.83988
G1 X69.4 Y55.6 E7.02798
G1 X69.4 Y74.4 E7.38162
G1 X50.6 Y74.4 E7.73526
G1 X50.6 Y64.4 E7.92336
G1 X30.6 Y64.4 E8.29957
G1 X30.6 Y55.6 E8.46511
G1 X50.6 Y55.6 E8.84132
G1 X50.6 Y35.6 E9.21753
G1 X60.6 Y35.6 E9.40564
G1 X60.6 Y25.6 E9.59374
G1 X69.4 Y25.6 E9.75927
G1 X69.4 Y44.4 E10.11291
G1 X59.4 Y44.4 E10.30102
G0 F3600 X59.8 Y44.8
;TYPE:WALL-OUTER
G1 F1800 X59.8 Y55.2 E10.49665
G1 X69.8 Y55.2 E10.68475
G1 X69.8 Y74.8 E11.05344
G1 X50.2 Y74.8 E11.42213
G1 X50.2 Y64.8 E11.61023
G1 X30.2 Y64.8 E11.98644
G1 X30.2 Y55.2 E12.16703
G1 X50.2 Y55.2 E12.54324
G1 X50.2 Y35.2 E12.91945
G1 X60.2 Y35.2 E13.10755
G1 X60.2 Y25.2 E13.29566
G1 X69.8 Y25.2 E13.47624
G1 X69.8 Y44.8 E13.84493
G1 X59.8 Y44.8 E14.03303
G0 F3600 X59.8 Y45
G0 X59.3 Y45
G0 X59.01 Y44.01
;TYPE:SKIN
G1 F1800 X59.01 Y55.99 E14.25838
G1 X69.01 Y55.99 E14.44649
G1 X69.01 Y74.01 E14.78545
G1 X50.99 Y74.01 E15.12442
G1 X50.99 Y64.01 E15.31253
G1 X30.99 Y64.01 E15.68874
G1 X30.99 Y55.99 E15.8396
G1 X50.99 Y55.99 E16.21581
G1 X50.99 Y35.99 E16.59202
G1 X60.99 Y35.99 E16.78013
G1 X60.99 Y25.99 E16.96823
G1 X69.01 Y25.99 E17.11909
G1 X69.01 Y44.01 E17.45806
G1 X59.01 Y44.01 E17.64616
G0 F3600 X68.829 Y26.403
G1 F1800 X68.596 Y26.17 E17.65236
G0 F3600 X68.03 Y26.17
G1 F1800 X68.829 Y26.969 E17.67362
G0 F3600 X68.829 Y27.534
G1 F1800 X67.465 Y26.17 E17.7099
G0 F3600 X66.899 Y26.17
G1 F1800 X68.829 Y28.1 E17.76125
G0 F3600 X68.829 Y28.666
G1 F1800 X66.333 Y26.17 E17.82764
G0 F3600 X65.768 Y26.17
G1 F1800 X68.829 Y29.231 E17.90907
G0 F3600 X68.829 Y29.797
G1 F1800 X65.202 Y26.17 E18.00556
G0 F3600 X64.636 Y26.17
G1 F1800 X68.829 Y30.363 E18.1171
G0 F3600 X68.829 Y30.928
G1 F1800 X64.07 Y26.17 E18.24369
G0 F3600 X63.505 Y26.17
G1 F1800 X68.829 Y31.494 E18.38532
G0 F3600 X68.829 Y32.06
G1 F1800 X62.939 Y26.17 E18.542
G0 F3600 X62.373 Y26.17
G1 F1800 X68.829 Y32.625 E18.71373
G0 F3600 X68.829 Y33.191
G1 F1800 X61.808 Y26.17 E18.90051
G0 F3600 X61.242 Y26.17
G1 F1800 X68.829 Y33.757 E19.10234
G0 F3600 X68.829 Y34.322
G1 F1800 X61.168 Y26.662 E19.30612
G0 F3600 X61.168 Y27.227
G1 F1800 X68.829 Y34.888 E19.50992
G0 F3600 X68.829 Y35.454
G1 F1800 X61.168 Y27.793 E19.71372
G0 F3600 X61.168 Y28.359
G1 F1800 X68.829 Y36.02 E19.91752
G0 F3600 X68.829 Y36.585
G1 F1800 X61.168 Y28.924 E20.12132
G0 F3600 X61.168 Y29.49
G1 F1800 X68.829 Y37.151 E20.32512
G0 F3600 X68.829 Y37.717
G1 F1800 X61.168 Y30.056 E20.52892
G0 F3600 X61.168 Y30.621
G1 F1800 X68.829 Y38.282 E20.73272
G0 F3600 X68.829 Y38.848
G1 F1800 X61.168 Y31.187 E20.93652
G0 F3600 X61.168 Y31.753
G1 F1800 X68.829 Y39.414 E21.14032
G0 F3600 X68.829 Y39.979
G1 F1800 X61.168 Y32.319 E21.3441
G0 F3600 X61.168 Y32.884
G1 F1800 X68.829 Y40.545 E21.5479
G0 F3600 X68.829 Y41.111
G1 F1800 X61.168 Y33.45 E21.7517
G0 F3600 X61.168 Y34.016
G1 F1800 X68.829 Y41.676 E21.95549
G0 F3600 X68.829 Y42.242
G1 F1800 X61.168 Y34.581 E22.15928
G0 F3600 X61.168 Y35.147
G1 F1800 X68.829 Y42.808 E22.36308
G0 F3600 X68.829 Y43.373
G1 F1800 X61.168 Y35.713 E22.56687
G0 F3600 X61.06 Y36.169
G1 F1800 X68.72 Y43.83 E22.77066
G0 F3600 X68.154 Y43.83
G1 F1800 X60.494 Y36.169 E22.97444
G0 F3600 X59.928 Y36.169
G1 F1800 X67.588 Y43.83 E23.17823
G0 F3600 X67.023 Y43.83
G1 F1800 X59.363 Y36.169 E23.38201
G0 F3600 X58.797 Y36.169
G1 F1800 X66.457 Y43.83 E23.5858
G0 F3600 X65.891 Y43.83
G1 F1800 X58.231 Y36.169 E23.78958
G0 F3600 X57.665 Y36.169
G1 F1800 X65.326 Y43.83 E23.99338
G0 F3600 X64.76 Y43.83
G1 F1800 X57.1 Y36.169 E24.19717
G0 F3600 X56.534 Y36.169
G1 F1800 X64.194 Y43.83 E24.40095
G0 F3600 X63.629 Y43.83
G1 F1800 X55.968 Y36.169 E24.60475
G0 F3600 X55.403 Y36.169
G1 F1800 X63.063 Y43.83 E24.80854
G0 F3600 X62.497 Y43.83
G1 F1800 X54.837 Y36.169 E25.01232
G0 F3600 X54.271 Y36.169
G1 F1800 X61.931 Y43.83 E25.21611
G0 F3600 X61.366 Y43.83
G1 F1800 X53.706 Y36.169 E25.4199
G0 F3600 X53.14 Y36.169
G1 F1800 X60.8 Y43.83 E25.62368
G0 F3600 X60.234 Y43.83
G1 F1800 X52.574 Y36.169 E25.82747
G0 F3600 X52.009 Y36.169
G1 F1800 X59.669 Y43.83 E26.03125
G0 F3600 X59.103 Y43.83
G1 F1800 X51.443 Y36.169 E26.23504
G0 F3600 X51.169 Y36.461
G1 F1800 X58.829 Y44.121 E26.43881
G0 F3600 X58.829 Y44.687
G1 F1800 X51.169 Y37.026 E26.6426
G0 F3600 X51.169 Y37.592
G1 F1800 X58.829 Y45.252 E26.84637
G0 F3600 X58.829 Y45.818
G1 F1800 X51.169 Y38.158 E27.05014
G0 F3600 X51.169 Y38.723
G1 F1800 X58.829 Y46.384 E27.25393
G0 F3600 X58.829 Y46.949
G1 F1800 X51.169 Y39.289 E27.4577
G0 F3600 X51.169 Y39.855
G1 F1800 X58.829 Y47.515 E27.66147
G0 F3600 X58.829 Y48.081
G1 F1800 X51.169 Y40.421 E27.86524
G0 F3600 X51.169 Y40.986
G1 F1800 X58.829 Y48.646 E28.06902
G0 F3600 X58.829 Y49.212
G1 F1800 X51.169 Y41.552 E28.27279
G0 F3600 X51.169 Y42.118
G1 F1800 X58.829 Y49.778 E28.47656
G0 F3600 X58.829 Y50.343
G1 F1800 X51.169 Y42.683 E28.68033
G0 F3600 X51.169 Y43.249
G1 F1800 X58.829 Y50.909 E28.88411
G0 F3600 X58.829 Y51.475
G1 F1800 X51.169 Y43.815 E29.08788
G0 F3600 X51.169 Y44.38
G1 F1800 X58.829 Y52.04 E29.29165
G0 F3600 X58.829 Y52.606
G1 F1800 X51.169 Y44.946 E29.49542
G0 F3600 X51.169 Y45.512
G1 F1800 X58.829 Y53.172 E29.6992
G0 F3600 X58.829 Y53.737
G1 F1800 X51.169 Y46.077 E29.90297
G0 F3600 X51.169 Y46.643
G1 F1800 X58.829 Y54.303 E30.10674
G0 F3600 X58.829 Y54.869
G1 F1800 X51.169 Y47.209 E30.31051
G0 F3600 X51.169 Y47.774
G1 F1800 X58.829 Y55.435 E30.5143
G0 F3600 X58.829 Y56
G1 F1800 X51.169 Y48.34 E30.71807
G0 F3600 X51.169 Y48.906
G1 F1800 X68.829 Y66.567 E31.18788
G0 F3600 X68.829 Y67.132
G1 F1800 X51.169 Y49.472 E31.65767
G0 F3600 X51.169 Y50.037
G1 F1800 X68.829 Y67.698 E32.12748
G0 F3600 X68.829 Y68.264
G1 F1800 X51.169 Y50.603 E32.59729
G0 F3600 X51.169 Y51.169
G1 F1800 X68.829 Y68.829 E33.06708
G0 F3600 X68.829 Y69.395
G1 F1800 X51.169 Y51.734 E33.53689
G0 F3600 X51.169 Y52.3
G1 F1800 X68.829 Y69.961 E34.0067
G0 F3600 X68.829 Y70.526
G1 F1800 X51.169 Y52.866 E34.47649
G0 F3600 X51.169 Y53.431
G1 F1800 X68.829 Y71.092 E34.9463
G0 F3600 X68.829 Y71.658
G1 F1800 X51.169 Y53.997 E35.4161
G0 F3600 X51.169 Y54.563
G1 F1800 X68.829 Y72.223 E35.8859
G0 F3600 X68.829 Y72.789
G1 F1800 X51.169 Y55.128 E36.35571
G0 F3600 X51.169 Y55.694
G1 F1800 X68.829 Y73.355 E36.82551
G0 F3600 X68.737 Y73.829
G1 F1800 X51.077 Y56.169 E37.29531
G0 F3600 X50.512 Y56.169
G1 F1800 X68.172 Y73.829 E37.7651
G0 F3600 X67.606 Y73.829
G1 F1800 X49.946 Y56.169 E38.23489
G0 F3600 X49.38 Y56.169
G1 F1800 X67.04 Y73.829 E38.70469
G0 F3600 X66.475 Y73.829
G1 F1800 X48.815 Y56.169 E39.17448
G0 F3600 X48.249 Y56.169
G1 F1800 X65.909 Y73.829 E39.64428
G0 F3600 X65.343 Y73.829
G1 F1800 X47.683 Y56.169 E40.11407
G0 F3600 X47.118 Y56.169
G1 F1800 X64.778 Y73.829 E40.58386
G0 F3600 X64.212 Y73.829
G1 F1800 X46.552 Y56.169 E41.05366
G0 F3600 X45.986 Y56.169
G1 F1800 X63.646 Y73.829 E41.52345
G0 F3600 X63.08 Y73.829
G1 F1800 X45.421 Y56.169 E41.99323
G0 F3600 X44.855 Y56.169
G1 F1800 X62.515 Y73.829 E42.46303
G0 F3600 X61.949 Y73.829
G1 F1800 X44.289 Y56.169 E42.93282
G0 F3600 X43.723 Y56.169
G1 F1800 X61.383 Y73.829 E43.40261
G0 F3600 X60.818 Y73.829
G1 F1800 X51.169 Y64.18 E43.6593
G0 F3600 X50.818 Y63.829
G1 F1800 X43.158 Y56.169 E43.86307
G0 F3600 X42.592 Y56.169
G1 F1800 X50.252 Y63.829 E44.06684
G0 F3600 X49.686 Y63.829
G1 F1800 X42.026 Y56.169 E44.27061
G0 F3600 X41.461 Y56.169
G1 F1800 X49.121 Y63.829 E44.47439
G0 F3600 X48.555 Y63.829
G1 F1800 X40.895 Y56.169 E44.67816
G0 F3600 X40.329 Y56.169
G1 F1800 X47.989 Y63.829 E44.88193
G0 F3600 X47.424 Y63.829
G1 F1800 X39.764 Y56.169 E45.0857
G0 F3600 X39.198 Y56.169
G1 F1800 X46.858 Y63.829 E45.28948
G0 F3600 X46.292 Y63.829
G1 F1800 X38.632 Y56.169 E45.49325
G0 F3600 X38.067 Y56.169
G1 F1800 X45.727 Y63.829 E45.69702
G0 F3600 X45.161 Y63.829
G1 F1800 X37.501 Y56.169 E45.90079
G0 F3600 X36.935 Y56.169
G1 F1800 X44.595 Y63.829 E46.10457
G0 F3600 X44.03 Y63.829
G1 F1800 X36.37 Y56.169 E46.30834
G0 F3600 X35.804 Y56.169
G1 F1800 X43.464 Y63.829 E46.51211
G0 F3600 X42.898 Y63.829
G1 F1800 X35.238 Y56.169 E46.71588
G0 F3600 X34.672 Y56.169
G1 F1800 X42.333 Y63.829 E46.91967
G0 F3600 X41.767 Y63.829
G1 F1800 X34.107 Y56.169 E47.12344
G0 F3600 X33.541 Y56.169
G1 F1800 X41.201 Y63.829 E47.32721
G0 F3600 X40.636 Y63.829
G1 F1800 X32.975 Y56.169 E47.531
G0 F3600 X32.41 Y56.169
G1 F1800 X40.07 Y63.829 E47.73477
G0 F3600 X39.504 Y63.829
G1 F1800 X31.844 Y56.169 E47.93854
G0 F3600 X31.278 Y56.169
G1 F1800 X38.938 Y63.829 E48.14232
G0 F3600 X38.373 Y63.829
G1 F1800 X31.169 Y56.625 E48.33396
G0 F3600 X31.169 Y57.191
G1 F1800 X37.807 Y63.829 E48.51054
G0 F3600 X37.241 Y63.829
G1 F1800 X31.169 Y57.757 E48.67207
G0 F3600 X31.169 Y58.322
G1 F1800 X36.676 Y63.829 E48.81857
G0 F3600 X36.11 Y63.829
G1 F1800 X31.169 Y58.888 E48.95001
G0 F3600 X31.169 Y59.454
G1 F1800 X35.544 Y63.829 E49.0664
G0 F3600 X34.979 Y63.829
G1 F1800 X31.169 Y60.019 E49.16775
G0 F3600 X31.169 Y60.585
G1 F1800 X34.413 Y63.829 E49.25405
G0 F3600 X33.847 Y63.829
G1 F1800 X31.169 Y61.151 E49.32529
G0 F3600 X31.169 Y61.716
G1 F1800 X33.282 Y63.829 E49.3815
G0 F3600 X32.716 Y63.829
G1 F1800 X31.169 Y62.282 E49.42265
G0 F3600 X31.169 Y62.848
G1 F1800 X32.15 Y63.829 E49.44875
G0 F3600 X31.585 Y63.829
G1 F1800 X31.169 Y63.414 E49.4598
G0 F3600 X50.628 Y64.372
G0 X51.169 Y64.746
G1 F1800 X60.252 Y73.829 E49.70143
G0 F3600 X59.686 Y73.829
G1 F1800 X51.169 Y65.311 E49.92801
G0 F3600 X51.169 Y65.877
G1 F1800 X59.121 Y73.829 E50.13955
G0 F3600 X58.555 Y73.829
G1 F1800 X51.169 Y66.443 E50.33604
G0 F3600 X51.169 Y67.008
G1 F1800 X57.989 Y73.829 E50.51748
G0 F3600 X57.424 Y73.829
G1 F1800 X51.169 Y67.574 E50.68387
G0 F3600 X51.169 Y68.14
G1 F1800 X56.858 Y73.829 E50.83521
G0 F3600 X56.292 Y73.829
G1 F1800 X51.169 Y68.706 E50.97149
G0 F3600 X51.169 Y69.271
G1 F1800 X55.727 Y73.829 E51.09275
G0 F3600 X55.161 Y73.829
G1 F1800 X51.169 Y69.837 E51.19894
G0 F3600 X51.169 Y70.403
G1 F1800 X54.595 Y73.829 E51.29008
G0 F3600 X54.03 Y73.829
G1 F1800 X51.169 Y70.968 E51.36619
G0 F3600 X51.169 Y71.534
G1 F1800 X53.464 Y73.829 E51.42724
G0 F3600 X52.898 Y73.829
G1 F1800 X51.169 Y72.1 E51.47324
G0 F3600 X51.169 Y72.665
G1 F1800 X52.332 Y73.829 E51.50419
G0 F3600 X51.767 Y73.829
G1 F1800 X51.169 Y73.231 E51.5201
G1 X51.099 Y73.161
G0 F3600 X58.998 Y56.17
G1 F1800 X68.829 Y66.001 E51.78162
G0 F3600 X68.829 Y65.435
G1 F1800 X59.564 Y56.17 E52.02809
G0 F3600 X60.13 Y56.17
G1 F1800 X68.829 Y64.869 E52.2595
G0 F3600 X68.829 Y64.304
G1 F1800 X60.695 Y56.17 E52.47589
