;FLAVOR:Marlin
;TIME:6666
;Filament used: 0m
;Layer height: 0.2
;MINX:2.14748e+06
;MINY:2.14748e+06
;MINZ:2.14748e+06
;MAXX:-2.14748e+06
;MAXY:-2.14748e+06
;MAXZ:-2.14748e+06

;Generated with Cura_SteamEngine 4.7.1
M104 S210
M105
M109 S210
M82 ;absolute extrusion mode
G28 ;Home
G1 Z15.0 F6000 ;Move the platform down 15mm
;Prime the extruder
G92 E0
G1 F200 E3
G92 E0
G92 E0
G92 E0
G1 F1500 E-6.5
;LAYER_COUNT:49
;LAYER:0
M107
G0 F3600 X43.597 Y30.663 Z0.3
;TYPE:SKIRT
G1 F1500 E0
G1 F1800 X44.08 Y30.039 E0.01484
G1 X44.485 Y29.602 E0.02605
G1 X44.602 Y29.485 E0.02916
G1 X45.188 Y28.955 E0.04403
G1 X45.824 Y28.488 E0.05887
G1 X46.504 Y28.087 E0.07372
G1 X47.222 Y27.757 E0.08858
G1 X47.969 Y27.502 E0.10343
G1 X48.738 Y27.323 E0.11828
G1 X49.522 Y27.223 E0.13315
G1 X50.117 Y27.2 E0.14435
G1 X52.2 Y27.2 E0.18353
G1 X52.2 Y25.117 E0.22271
G1 X52.24 Y24.328 E0.23757
G1 X52.359 Y23.548 E0.25242
G1 X52.557 Y22.783 E0.26728
G1 X52.831 Y22.043 E0.28212
G1 X53.179 Y21.334 E0.29698
G1 X53.597 Y20.663 E0.31185
G1 X54.08 Y20.039 E0.32669
G1 X54.485 Y19.602 E0.3379
G1 X54.602 Y19.485 E0.34101
G1 X55.188 Y18.955 E0.35588
G1 X55.824 Y18.488 E0.37072
G1 X56.504 Y18.087 E0.38557
G1 X57.222 Y17.757 E0.40043
G1 X57.969 Y17.502 E0.41528
G1 X58.738 Y17.323 E0.43013
G1 X59.522 Y17.223 E0.445
G1 X60.117 Y17.2 E0.4562
G1 X69.883 Y17.2 E0.6399
G1 X70.672 Y17.24 E0.65477
G1 X71.452 Y17.359 E0.66961
G1 X72.217 Y17.557 E0.68447
G1 X72.957 Y17.831 E0.69932
G1 X73.666 Y18.179 E0.71417
G1 X74.337 Y18.597 E0.72904
G1 X74.961 Y19.08 E0.74389
G1 X75.398 Y19.485 E0.75509
G1 X75.515 Y19.602 E0.75821
G1 X76.045 Y20.188 E0.77307
G1 X76.512 Y20.824 E0.78791
G1 X76.913 Y21.504 E0.80276
G1 X77.243 Y22.222 E0.81762
G1 X77.498 Y22.969 E0.83247
G1 X77.677 Y23.738 E0.84732
G1 X77.777 Y24.522 E0.86219
G1 X77.8 Y25.117 E0.87339
G1 X77.8 Y44.883 E1.2452
G1 X77.76 Y45.672 E1.26006
G1 X77.641 Y46.452 E1.2749
G1 X77.443 Y47.217 E1.28977
G1 X77.169 Y47.957 E1.30461
G1 X76.821 Y48.666 E1.31947
G1 X76.403 Y49.337 E1.33434
G1 X75.92 Y49.961 E1.34918
G1 X75.879 Y50.005 E1.35031
G1 X76.045 Y50.188 E1.35496
G1 X76.512 Y50.824 E1.3698
G1 X76.913 Y51.504 E1.38465
G1 X77.243 Y52.222 E1.39952
G1 X77.498 Y52.969 E1.41436
G1 X77.677 Y53.738 E1.42922
G1 X77.777 Y54.522 E1.44408
G1 X77.8 Y55.117 E1.45528
G1 X77.8 Y74.883 E1.82709
G1 X77.76 Y75.672 E1.84195
G1 X77.641 Y76.452 E1.8568
G1 X77.443 Y77.217 E1.87166
G1 X77.169 Y77.957 E1.8865
G1 X76.821 Y78.666 E1.90136
G1 X76.403 Y79.337 E1.91623
G1 X75.92 Y79.961 E1.93107
G1 X75.515 Y80.398 E1.94228
G1 X75.398 Y80.515 E1.94539
G1 X74.812 Y81.045 E1.96026
G1 X74.176 Y81.512 E1.9751
G1 X73.496 Y81.913 E1.98995
G1 X72.778 Y82.243 E2.00481
G1 X72.031 Y82.498 E2.01966
G1 X71.262 Y82.677 E2.03451
G1 X70.478 Y82.777 E2.04938
G1 X69.883 Y82.8 E2.06058
G1 X50.117 Y82.8 E2.43239
G1 X49.328 Y82.76 E2.44725
G1 X48.548 Y82.641 E2.46209
G1 X47.783 Y82.443 E2.47696
G1 X47.043 Y82.169 E2.4918
G1 X46.334 Y81.821 E2.50666
G1 X45.663 Y81.403 E2.52153
G1 X45.039 Y80.92 E2.53637
G1 X44.602 Y80.515 E2.54758
G1 X44.485 Y80.398 E2.55069
G1 X43.955 Y79.812 E2.56555
G1 X43.488 Y79.176 E2.5804
G1 X43.087 Y78.496 E2.59525
G1 X42.757 Y77.778 E2.61011
G1 X42.502 Y77.031 E2.62496
G1 X42.323 Y76.262 E2.63981
G1 X42.223 Y75.478 E2.65468
G1 X42.2 Y74.883 E2.66588
G1 X42.2 Y72.8 E2.70506
G1 X30.117 Y72.8 E2.93235
G1 X29.328 Y72.76 E2.94721
G1 X28.548 Y72.641 E2.96205
G1 X27.783 Y72.443 E2.97691
G1 X27.043 Y72.169 E2.99176
G1 X26.334 Y71.821 E3.00661
G1 X25.663 Y71.403 E3.02148
G1 X25.039 Y70.92 E3.03633
G1 X24.602 Y70.515 E3.04754
G1 X24.485 Y70.398 E3.05065
G1 X23.955 Y69.812 E3.06551
G1 X23.488 Y69.176 E3.08035
G1 X23.087 Y68.496 E3.0952
G1 X22.757 Y67.778 E3.11007
G1 X22.502 Y67.031 E3.12491
G1 X22.323 Y66.262 E3.13977
G1 X22.223 Y65.478 E3.15463
G1 X22.2 Y64.883 E3.16583
G1 X22.2 Y55.117 E3.34954
G1 X22.24 Y54.328 E3.3644
G1 X22.359 Y53.548 E3.37924
G1 X22.557 Y52.783 E3.3941
G1 X22.831 Y52.043 E3.40895
G1 X23.179 Y51.334 E3.4238
G1 X23.597 Y50.663 E3.43868
G1 X24.08 Y50.039 E3.45352
G1 X24.485 Y49.602 E3.46473
G1 X24.602 Y49.485 E3.46784
G1 X25.188 Y48.955 E3.4827
G1 X25.824 Y48.488 E3.49754
G1 X26.504 Y48.087 E3.51239
G1 X27.222 Y47.757 E3.52726
G1 X27.969 Y47.502 E3.5421
G1 X28.738 Y47.323 E3.55696
G1 X29.522 Y47.223 E3.57182
G1 X30.117 Y47.2 E3.58302
G1 X42.2 Y47.2 E3.81031
G1 X42.2 Y35.117 E4.0376
G1 X42.24 Y34.328 E4.05246
G1 X42.359 Y33.548 E4.0673
G1 X42.557 Y32.783 E4.08217
G1 X42.831 Y32.043 E4.09701
G1 X43.179 Y31.334 E4.11187
G1 X43.597 Y30.663 E4.12674
G0 F3600 X43.994 Y30.794
G1 F1800 X44.475 Y30.194 E4.1412
G1 X44.884 Y29.767 E4.15233
G1 X45.456 Y29.253 E4.16679
G1 X46.078 Y28.8 E4.18127
G1 X46.743 Y28.414 E4.19573
G1 X47.445 Y28.099 E4.2102
G1 X48.176 Y27.859 E4.22467
G1 X48.927 Y27.696 E4.23913
G1 X49.692 Y27.612 E4.25361
G1 X50.117 Y27.6 E4.2616
G1 X52.6 Y27.6 E4.30831
G1 X52.6 Y25.117 E4.35502
G1 X52.64 Y24.349 E4.36948
G1 X52.759 Y23.589 E4.38395
G1 X52.957 Y22.846 E4.39842
G1 X53.231 Y22.127 E4.41289
G1 X53.578 Y21.441 E4.42735
G1 X53.994 Y20.794 E4.44182
G1 X54.475 Y20.194 E4.45629
G1 X54.884 Y19.767 E4.46741
G1 X55.456 Y19.253 E4.48188
G1 X56.078 Y18.8 E4.49635
G1 X56.743 Y18.414 E4.51081
G1 X57.445 Y18.099 E4.52529
G1 X58.176 Y17.859 E4.53976
G1 X58.927 Y17.696 E4.55421
G1 X59.692 Y17.612 E4.56869
G1 X60.117 Y17.6 E4.57669
G1 X69.883 Y17.6 E4.76039
G1 X70.651 Y17.64 E4.77486
G1 X71.411 Y17.759 E4.78933
G1 X72.154 Y17.957 E4.80379
G1 X72.873 Y18.231 E4.81827
G1 X73.559 Y18.578 E4.83273
G1 X74.206 Y18.994 E4.8472
G1 X74.806 Y19.475 E4.86166
G1 X75.233 Y19.884 E4.87278
G1 X75.747 Y20.456 E4.88725
G1 X76.2 Y21.078 E4.90172
G1 X76.586 Y21.743 E4.91619
G1 X76.901 Y22.445 E4.93066
G1 X77.141 Y23.176 E4.94513
G1 X77.304 Y23.927 E4.95959
G1 X77.388 Y24.692 E4.97407
G1 X77.4 Y25.117 E4.98206
G1 X77.4 Y44.883 E5.35387
G1 X77.36 Y45.651 E5.36834
G1 X77.241 Y46.411 E5.38281
G1 X77.043 Y47.154 E5.39727
G1 X76.769 Y47.873 E5.41175
G1 X76.422 Y48.559 E5.42621
G1 X76.006 Y49.206 E5.44068
G1 X75.525 Y49.806 E5.45514
G1 X75.34 Y50.003 E5.46023
G1 X75.747 Y50.456 E5.47168
G1 X76.2 Y51.078 E5.48616
G1 X76.586 Y51.743 E5.50062
G1 X76.901 Y52.445 E5.51509
G1 X77.141 Y53.176 E5.52957
G1 X77.304 Y53.927 E5.54402
G1 X77.388 Y54.692 E5.5585
G1 X77.4 Y55.117 E5.5665
G1 X77.4 Y74.883 E5.9383
G1 X77.36 Y75.651 E5.95277
G1 X77.241 Y76.411 E5.96724
G1 X77.043 Y77.154 E5.9817
G1 X76.769 Y77.873 E5.99618
G1 X76.422 Y78.559 E6.01064
G1 X76.006 Y79.206 E6.02511
G1 X75.525 Y79.806 E6.03957
G1 X75.116 Y80.233 E6.0507
G1 X74.544 Y80.747 E6.06516
G1 X73.922 Y81.2 E6.07964
G1 X73.257 Y81.586 E6.0941
G1 X72.555 Y81.901 E6.10857
G1 X71.824 Y82.141 E6.12305
G1 X71.073 Y82.304 E6.1375
G1 X70.308 Y82.388 E6.15198
G1 X69.883 Y82.4 E6.15998
G1 X50.117 Y82.4 E6.53178
G1 X49.349 Y82.36 E6.54625
G1 X48.589 Y82.241 E6.56072
G1 X47.846 Y82.043 E6.57519
G1 X47.127 Y81.769 E6.58966
G1 X46.441 Y81.422 E6.60412
G1 X45.794 Y81.006 E6.61859
G1 X45.194 Y80.525 E6.63305
G1 X44.767 Y80.116 E6.64418
G1 X44.253 Y79.544 E6.65864
G1 X43.8 Y78.922 E6.67312
G1 X43.414 Y78.257 E6.68758
G1 X43.099 Y77.555 E6.70205
G1 X42.859 Y76.824 E6.71653
G1 X42.696 Y76.073 E6.73098
G1 X42.612 Y75.308 E6.74546
G1 X42.6 Y74.883 E6.75346
G1 X42.6 Y72.4 E6.80016
G1 X30.117 Y72.4 E7.03497
G1 X29.349 Y72.36 E7.04944
G1 X28.589 Y72.241 E7.06391
G1 X27.846 Y72.043 E7.07837
G1 X27.127 Y71.769 E7.09285
G1 X26.441 Y71.422 E7.10731
G1 X25.794 Y71.006 E7.12178
G1 X25.194 Y70.525 E7.13624
G1 X24.767 Y70.116 E7.14737
G1 X24.253 Y69.544 E7.16183
G1 X23.8 Y68.922 E7.17631
G1 X23.414 Y68.257 E7.19077
G1 X23.099 Y67.555 E7.20524
G1 X22.859 Y66.824 E7.21972
G1 X22.696 Y66.073 E7.23417
G1 X22.612 Y65.308 E7.24865
G1 X22.6 Y64.883 E7.25665
G1 X22.6 Y55.117 E7.44035
G1 X22.64 Y54.349 E7.45482
G1 X22.759 Y53.589 E7.46929
G1 X22.957 Y52.846 E7.48375
G1 X23.231 Y52.127 E7.49822
G1 X23.578 Y51.441 E7.51268
G1 X23.994 Y50.794 E7.52715
G1 X24.475 Y50.194 E7.54162
G1 X24.884 Y49.767 E7.55274
G1 X25.456 Y49.253 E7.56721
G1 X26.078 Y48.8 E7.58168
G1 X26.743 Y48.414 E7.59614
G1 X27.445 Y48.099 E7.61062
G1 X28.176 Y47.859 E7.62509
G1 X28.927 Y47.696 E7.63955
G1 X29.692 Y47.612 E7.65402
G1 X30.117 Y47.6 E7.66202
G1 X42.6 Y47.6 E7.89683
G1 X42.6 Y35.117 E8.13164
G1 X42.64 Y34.349 E8.14611
G1 X42.759 Y33.589 E8.16058
G1 X42.957 Y32.846 E8.17504
G1 X43.231 Y32.127 E8.18952
G1 X43.578 Y31.441 E8.20398
G1 X43.994 Y30.794 E8.21845
G0 F3600 X44.392 Y30.928
G1 F1800 X45.05 Y30.167 E8.23737
G1 X45.167 Y30.05 E8.24048
G1 X45.724 Y29.55 E8.25456
G1 X46.33 Y29.113 E8.26862
G1 X46.98 Y28.742 E8.2827
G1 X47.666 Y28.443 E8.29677
G1 X48.38 Y28.219 E8.31085
G1 X49.113 Y28.072 E8.32491
G1 X50.117 Y28 E8.34385
G1 X53 Y28 E8.39808
G1 X53 Y25.117 E8.45231
G1 X53.04 Y24.37 E8.46638
G1 X53.159 Y23.632 E8.48044
G1 X53.357 Y22.91 E8.49452
G1 X53.63 Y22.214 E8.50859
G1 X53.977 Y21.551 E8.52266
G1 X54.392 Y20.928 E8.53674
G1 X55.05 Y20.167 E8.55567
G1 X55.167 Y20.05 E8.55878
G1 X55.724 Y19.55 E8.57286
G1 X56.33 Y19.113 E8.58691
G1 X56.98 Y18.742 E8.60099
G1 X57.666 Y18.443 E8.61507
G1 X58.38 Y18.219 E8.62915
G1 X59.113 Y18.072 E8.64321
G1 X60.117 Y18 E8.66214
G1 X69.883 Y18 E8.84585
G1 X70.63 Y18.04 E8.85992
G1 X71.368 Y18.159 E8.87398
G1 X72.09 Y18.357 E8.88806
G1 X72.786 Y18.63 E8.90213
G1 X73.449 Y18.977 E8.9162
G1 X74.072 Y19.392 E8.93028
G1 X74.833 Y20.05 E8.94921
G1 X74.95 Y20.167 E8.95232
G1 X75.45 Y20.724 E8.9664
G1 X75.887 Y21.33 E8.98045
G1 X76.258 Y21.98 E8.99453
G1 X76.557 Y22.666 E9.00861
G1 X76.781 Y23.38 E9.02268
G1 X76.928 Y24.113 E9.03675
G1 X77 Y25.117 E9.05568
G1 X77 Y44.883 E9.42749
G1 X76.96 Y45.63 E9.44156
G1 X76.841 Y46.368 E9.45562
G1 X76.643 Y47.09 E9.46971
G1 X76.37 Y47.786 E9.48377
G1 X76.023 Y48.449 E9.49785
G1 X75.608 Y49.072 E9.51193
G1 X74.95 Y49.833 E9.53085
G1 X74.776 Y50.001 E9.5354
G1 X74.95 Y50.167 E9.53992
G1 X75.45 Y50.724 E9.554
G1 X75.887 Y51.33 E9.56806
G1 X76.258 Y51.98 E9.58214
G1 X76.557 Y52.666 E9.59621
G1 X76.781 Y53.38 E9.61029
G1 X76.928 Y54.113 E9.62435
G1 X77 Y55.117 E9.64328
G1 X77 Y74.883 E10.01509
G1 X76.96 Y75.63 E10.02917
G1 X76.841 Y76.368 E10.04323
G1 X76.643 Y77.09 E10.05731
G1 X76.37 Y77.786 E10.07137
G1 X76.023 Y78.449 E10.08545
G1 X75.608 Y79.072 E10.09953
G1 X74.95 Y79.833 E10.11845
G1 X74.833 Y79.95 E10.12157
G1 X74.276 Y80.45 E10.13565
G1 X73.67 Y80.887 E10.1497
G1 X73.02 Y81.258 E10.16378
G1 X72.334 Y81.557 E10.17786
G1 X71.62 Y81.781 E10.19193
G1 X70.887 Y81.928 E10.20599
G1 X69.883 Y82 E10.22493
G1 X50.117 Y82 E10.59674
G1 X49.37 Y81.96 E10.61081
G1 X48.632 Y81.841 E10.62487
G1 X47.91 Y81.643 E10.63895
G1 X47.214 Y81.37 E10.65302
G1 X46.551 Y81.023 E10.66709
G1 X45.928 Y80.608 E10.68117
G1 X45.167 Y79.95 E10.7001
G1 X45.05 Y79.833 E10.70321
G1 X44.55 Y79.276 E10.71729
G1 X44.113 Y78.67 E10.73134
G1 X43.742 Y78.02 E10.74542
G1 X43.443 Y77.334 E10.7595
G1 X43.219 Y76.62 E10.77358
G1 X43.072 Y75.887 E10.78764
G1 X43 Y74.883 E10.80657
G1 X43 Y72 E10.8608
G1 X30.117 Y72 E11.10314
G1 X29.37 Y71.96 E11.11721
G1 X28.632 Y71.841 E11.13127
G1 X27.91 Y71.643 E11.14536
G1 X27.214 Y71.37 E11.15942
G1 X26.551 Y71.023 E11.17349
G1 X25.928 Y70.608 E11.18758
G1 X25.167 Y69.95 E11.2065
G1 X25.05 Y69.833 E11.20961
G1 X24.55 Y69.276 E11.22369
G1 X24.113 Y68.67 E11.23775
G1 X23.742 Y68.02 E11.25182
G1 X23.443 Y67.334 E11.2659
G1 X23.219 Y66.62 E11.27998
G1 X23.072 Y65.887 E11.29404
G1 X23 Y64.883 E11.31297
G1 X23 Y55.117 E11.49668
G1 X23.04 Y54.37 E11.51075
G1 X23.159 Y53.632 E11.52481
G1 X23.357 Y52.91 E11.53889
G1 X23.63 Y52.214 E11.55296
G1 X23.977 Y51.551 E11.56703
G1 X24.392 Y50.928 E11.58111
G1 X25.05 Y50.167 E11.60004
G1 X25.167 Y50.05 E11.60315
G1 X25.724 Y49.55 E11.61723
G1 X26.33 Y49.113 E11.63128
G1 X26.98 Y48.742 E11.64536
G1 X27.666 Y48.443 E11.65944
G1 X28.38 Y48.219 E11.67351
G1 X29.113 Y48.072 E11.68758
G1 X30.117 Y48 E11.70651
G1 X43 Y48 E11.94885
G1 X43 Y35.117 E12.19118
G1 X43.04 Y34.37 E12.20526
G1 X43.159 Y33.632 E12.21932
G1 X43.357 Y32.91 E12.2334
G1 X43.63 Y32.214 E12.24746
G1 X43.977 Y31.551 E12.26154
G1 X44.392 Y30.928 E12.27562
G0 F3600 X44.789 Y31.067
G1 F1800 X45.333 Y30.45 E12.29109
G1 X45.45 Y30.333 E12.29421
G1 X45.991 Y29.849 E12.30786
G1 X46.582 Y29.426 E12.32153
G1 X47.216 Y29.072 E12.33519
G1 X47.885 Y28.789 E12.34885
G1 X48.581 Y28.581 E12.36252
G1 X49.296 Y28.451 E12.37619
G1 X50.117 Y28.4 E12.39166
G1 X53.4 Y28.4 E12.45342
G1 X53.4 Y25.117 E12.51517
G1 X53.44 Y24.392 E12.52883
G1 X53.559 Y23.675 E12.5425
G1 X53.757 Y22.976 E12.55617
G1 X54.03 Y22.303 E12.56983
G1 X54.375 Y21.664 E12.58349
G1 X54.789 Y21.067 E12.59716
G1 X55.333 Y20.45 E12.61263
G1 X55.45 Y20.333 E12.61574
G1 X55.991 Y19.849 E12.6294
G1 X56.582 Y19.426 E12.64307
G1 X57.216 Y19.072 E12.65673
G1 X57.885 Y18.789 E12.67039
G1 X58.581 Y18.581 E12.68405
G1 X59.296 Y18.451 E12.69772
G1 X60.117 Y18.4 E12.7132
G1 X69.883 Y18.4 E12.8969
G1 X70.608 Y18.44 E12.91056
G1 X71.325 Y18.559 E12.92423
G1 X72.024 Y18.757 E12.9379
G1 X72.697 Y19.03 E12.95156
G1 X73.336 Y19.375 E12.96522
G1 X73.933 Y19.789 E12.97888
G1 X74.55 Y20.333 E12.99436
G1 X74.667 Y20.45 E12.99747
G1 X75.151 Y20.991 E13.01112
G1 X75.574 Y21.582 E13.0248
G1 X75.928 Y22.216 E13.03846
G1 X76.211 Y22.885 E13.05212
G1 X76.419 Y23.581 E13.06578
G1 X76.549 Y24.296 E13.07945
G1 X76.6 Y25.117 E13.09493
G1 X76.6 Y44.883 E13.46674
G1 X76.56 Y45.608 E13.48039
G1 X76.441 Y46.325 E13.49407
G1 X76.243 Y47.024 E13.50773
G1 X75.97 Y47.697 E13.52139
G1 X75.625 Y48.336 E13.53505
G1 X75.211 Y48.933 E13.54872
G1 X74.667 Y49.55 E13.56419
G1 X74.55 Y49.667 E13.5673
G1 X74.175 Y50.002 E13.57676
G1 X74.55 Y50.333 E13.58617
G1 X74.667 Y50.45 E13.58928
G1 X75.151 Y50.991 E13.60294
G1 X75.574 Y51.582 E13.61661
G1 X75.928 Y52.216 E13.63027
G1 X76.211 Y52.885 E13.64393
G1 X76.419 Y53.581 E13.6576
G1 X76.549 Y54.296 E13.67127
G1 X76.6 Y55.117 E13.68674
G1 X76.6 Y74.883 E14.05855
G1 X76.56 Y75.608 E14.07221
G1 X76.441 Y76.325 E14.08588
G1 X76.243 Y77.024 E14.09955
G1 X75.97 Y77.697 E14.11321
G1 X75.625 Y78.336 E14.12687
G1 X75.211 Y78.933 E14.14053
G1 X74.667 Y79.55 E14.15601
G1 X74.55 Y79.667 E14.15912
G1 X74.009 Y80.151 E14.17277
G1 X73.418 Y80.574 E14.18644
G1 X72.784 Y80.928 E14.2001
G1 X72.115 Y81.211 E14.21377
G1 X71.419 Y81.419 E14.22743
G1 X70.704 Y81.549 E14.2411
G1 X69.883 Y81.6 E14.25658
G1 X50.117 Y81.6 E14.62838
G1 X49.392 Y81.56 E14.64204
G1 X48.675 Y81.441 E14.65571
G1 X47.976 Y81.243 E14.66938
G1 X47.303 Y80.97 E14.68304
G1 X46.664 Y80.625 E14.6967
G1 X46.067 Y80.211 E14.71037
G1 X45.45 Y79.667 E14.72584
G1 X45.333 Y79.55 E14.72895
G1 X44.849 Y79.009 E14.74261
G1 X44.426 Y78.418 E14.75628
G1 X44.072 Y77.784 E14.76994
G1 X43.789 Y77.115 E14.7836
G1 X43.581 Y76.419 E14.79727
G1 X43.451 Y75.704 E14.81094
G1 X43.4 Y74.883 E14.82641
G1 X43.4 Y71.6 E14.88816
G1 X30.117 Y71.6 E15.13803
G1 X29.392 Y71.56 E15.15168
G1 X28.675 Y71.441 E15.16536
G1 X27.976 Y71.243 E15.17902
G1 X27.303 Y70.97 E15.19268
G1 X26.664 Y70.625 E15.20634
G1 X26.067 Y70.211 E15.22001
G1 X25.45 Y69.667 E15.23548
G1 X25.333 Y69.55 E15.23859
G1 X24.849 Y69.009 E15.25225
G1 X24.426 Y68.418 E15.26592
G1 X24.072 Y67.784 E15.27958
G1 X23.789 Y67.115 E15.29324
G1 X23.581 Y66.419 E15.30691
G1 X23.451 Y65.704 E15.32058
G1 X23.4 Y64.883 E15.33605
G1 X23.4 Y55.117 E15.51975
G1 X23.44 Y54.392 E15.53341
G1 X23.559 Y53.675 E15.54708
G1 X23.757 Y52.976 E15.56075
G1 X24.03 Y52.303 E15.57441
G1 X24.375 Y51.664 E15.58807
G1 X24.789 Y51.067 E15.60174
G1 X25.333 Y50.45 E15.61721
G1 X25.45 Y50.333 E15.62032
G1 X25.991 Y49.849 E15.63398
G1 X26.582 Y49.426 E15.64765
G1 X27.216 Y49.072 E15.66131
G1 X27.885 Y48.789 E15.67497
G1 X28.581 Y48.581 E15.68864
G1 X29.296 Y48.451 E15.70231
G1 X30.117 Y48.4 E15.71778
G1 X43.4 Y48.4 E15.96764
G1 X43.4 Y35.117 E16.2175
G1 X43.44 Y34.392 E16.23116
G1 X43.559 Y33.675 E16.24483
G1 X43.757 Y32.976 E16.2585
G1 X44.03 Y32.303 E16.27216
G1 X44.375 Y31.664 E16.28582
G1 X44.789 Y31.067 E16.29948
G0 F3600 X44.774 Y31.782
G1 F1800 X45.185 Y31.211 E16.31272
G1 X45.616 Y30.733 E16.32482
G1 X45.733 Y30.616 E16.32794
G1 X46.258 Y30.147 E16.34118
G1 X46.833 Y29.741 E16.35442
G1 X47.451 Y29.403 E16.36767
