;FLAVOR:Marlin
;TIME:6666
;Filament used: 0m
;Layer height: 0.282843
;MINX:2.14748e+06
;MINY:2.14748e+06
;MINZ:2.14748e+06
;MAXX:-2.14748e+06
;MAXY:-2.14748e+06
;MAXZ:-2.14748e+06

;Generated with Cura_SteamEngine master
M104 S210
M105
M109 S210
M82 ;absolute extrusion mode

G92 E0
G92 E0
G1 F4500 E-6.5
;LAYER_COUNT:151
;LAYER:0
M107
;MESH:/tmp/upohsd0e.stl
G0 F6300 X100.2 Y0.2 Z0.283
;TYPE:WALL-OUTER
G1 F4500 E0
G1 F300 X109.8 Y0.2 E0.47921
G1 X109.8 Y0.455 E0.49194
G1 X100.2 Y0.455 E0.97115
G1 X100.2 Y0.2 E0.98388
G0 F6300 X100.4 Y0.2
;MESH:NONMESH
G0 F600 X100.4 Y0.2 Z0.566
G0 F6300 X100.2 Y0.2
;TIME_ELAPSED:6.264166
;LAYER:1
M106 S38.2
;TYPE:WALL-OUTER
;MESH:/tmp/upohsd0e.stl
G1 F407.5 X109.8 Y0.2 E1.30336
G1 X109.8 Y0.856 E1.32519
G1 X100.2 Y0.856 E1.64466
G1 X100.2 Y0.2 E1.66649
G0 F6750 X100.4 Y0.2
;MESH:NONMESH
G0 F600 X100.4 Y0.2 Z0.849
G0 F6750 X100.2 Y0.2
;TIME_ELAPSED:9.422324
;LAYER:2
M106 S76.5
;TYPE:WALL-OUTER
;MESH:/tmp/upohsd0e.stl
G1 F515 X109.8 Y0.2 E1.892396 ; Adjusted E for belt wall
G92 E1.985970 ; Reset E to pre-compensated value
G1 X109.8 Y0.933 E2.01036
G1 X100.2 Y0.933 E2.32984
G1 X100.2 Y0.2 E2.35423
G0 F7200 X100.4 Y0.2
;MESH:NONMESH
G0 F600 X100.4 Y0.2 Z1.132
G0 F7200 X100.2 Y0.2
;TIME_ELAPSED:11.965725
;LAYER:3
M106 S114.8
;TYPE:WALL-OUTER
;MESH:/tmp/upohsd0e.stl
G1 F600 X109.8 Y0.2 E2.580136 ; Adjusted E for belt wall
G92 E2.673710 ; Reset E to pre-compensated value
G1 X109.8 Y0.933 E2.6981
G1 X100.2 Y0.933 E3.01757
G1 X100.2 Y0.2 E3.04197
G0 F7650 X100.4 Y0.2
;MESH:NONMESH
G0 F600 X100.4 Y0.2 Z1.415
G0 F7650 X100.2 Y0.2
;TIME_ELAPSED:14.166412
;LAYER:4
M106 S153
;TYPE:WALL-OUTER
;MESH:/tmp/upohsd0e.stl
G1 F600 X109.8 Y0.2 E3.267869 ; Adjusted E for belt wall
G92 E3.361440 ; Reset E to pre-compensated value
G1 X109.8 Y0.933 E3.38583
G1 X100.2 Y0.933 E3.70531
G1 X100.2 Y0.2 E3.7297
G0 F8100 X100.4 Y0.2
;MESH:NONMESH
G0 F600 X100.4 Y0.2 Z1.698
G0 F8100 X100.2 Y0.2
;TIME_ELAPSED:16.366220
;LAYER:5
;TYPE:WALL-OUTER
;MESH:/tmp/upohsd0e.stl
G1 F600 X109.8 Y0.2 E3.955606 ; Adjusted E for belt wall
G92 E4.049180 ; Reset E to pre-compensated value
G1 X109.8 Y0.933 E4.07357
G1 X100.2 Y0.933 E4.39305
G1 X100.2 Y0.2 E4.41744
G0 F8550 X100.4 Y0.2
;MESH:NONMESH
G0 F600 X100.4 Y0.2 Z1.981
G0 F8550 X100.2 Y0.2
;TIME_ELAPSED:18.565254
;LAYER:6
;TYPE:WALL-OUTER
;MESH:/tmp/upohsd0e.stl
G1 F600 X109.8 Y0.2 E4.643339 ; Adjusted E for belt wall
G92 E4.736910 ; Reset E to pre-compensated value
G1 X109.8 Y0.933 E4.76131
G1 X100.2 Y0.933 E5.08078
G1 X100.2 Y0.2 E5.10517
G0 F9000 X100.4 Y0.2
;MESH:NONMESH
G0 F600 X100.4 Y0.2 Z2.264
G0 F9000 X100.2 Y0.2
;TIME_ELAPSED:20.763614
;LAYER:7
;TYPE:WALL-OUTER
;MESH:/tmp/upohsd0e.stl
G1 F600 X109.8 Y0.2 E5.331076 ; Adjusted E for belt wall
G92 E5.424650 ; Reset E to pre-compensated value
G1 X109.8 Y0.933 E5.44904
G1 X100.2 Y0.933 E5.76852
G1 X100.2 Y0.2 E5.79291
G0 F9000 X100.4 Y0.2
;MESH:NONMESH
G0 F600 X100.4 Y0.2 Z2.547
G0 F9000 X100.2 Y0.2
;TIME_ELAPSED:22.961974
;LAYER:8
;TYPE:WALL-OUTER
;MESH:/tmp/upohsd0e.stl
G1 F600 X109.8 Y0.2 E6.018816 ; Adjusted E for belt wall
G92 E6.112390 ; Reset E to pre-compensated value
G1 X109.8 Y0.933 E6.13678
G1 X100.2 Y0.933 E6.45625
G1 X100.2 Y0.2 E6.48065
G0 F9000 X100.4 Y0.2
;MESH:NONMESH
G0 F600 X100.4 Y0.2 Z2.83
G0 F9000 X100.2 Y0.2
;TIME_ELAPSED:25.160334
;LAYER:9
;TYPE:WALL-OUTER
;MESH:/tmp/upohsd0e.stl
G1 F600 X109.8 Y0.2 E6.706549 ; Adjusted E for belt wall
G92 E6.800120 ; Reset E to pre-compensated value
G1 X109.8 Y0.933 E6.82452
G1 X100.2 Y0.933 E7.14399
G1 X100.2 Y0.2 E7.16838
G0 F9000 X100.4 Y0.2
;MESH:NONMESH
G0 F600 X100.4 Y0.2 Z3.113
G0 F9000 X100.2 Y0.2
;TIME_ELAPSED:27.358694
;LAYER:10
;TYPE:WALL-OUTER
;MESH:/tmp/upohsd0e.stl
G1 F600 X109.8 Y0.2 E7.394286 ; Adjusted E for belt wall
G92 E7.487860 ; Reset E to pre-compensated value
G1 X109.8 Y0.933 E7.51225
G1 X100.2 Y0.933 E7.83173
G1 X100.2 Y0.2 E7.85612
G0 F9000 X100.4 Y0.2
;MESH:NONMESH
G0 F600 X100.4 Y0.2 Z3.396
G0 F9000 X100.2 Y0.2
;TIME_ELAPSED:29.557054
;LAYER:11
;TYPE:WALL-OUTER
;MESH:/tmp/upohsd0e.stl
G1 F600 X109.8 Y0.2 E8.082019 ; Adjusted E for belt wall
G92 E8.175590 ; Reset E to pre-compensated value
G1 X109.8 Y0.933 E8.19999
G1 X100.2 Y0.933 E8.51946
G1 X100.2 Y0.2 E8.54386
G0 F9000 X100.4 Y0.2
;MESH:NONMESH
G0 F600 X100.4 Y0.2 Z3.679
G0 F9000 X100.2 Y0.2
;TIME_ELAPSED:31.755414
;LAYER:12
;TYPE:WALL-OUTER
;MESH:/tmp/upohsd0e.stl
G1 F600 X109.8 Y0.2 E8.769759 ; Adjusted E for belt wall
G92 E8.863330 ; Reset E to pre-compensated value
G1 X109.8 Y0.933 E8.88772
G1 X100.2 Y0.933 E9.2072
G1 X100.2 Y0.2 E9.23159
G0 F9000 X100.4 Y0.2
;MESH:NONMESH
G0 F600 X100.4 Y0.2 Z3.962
G0 F9000 X100.2 Y0.2
;TIME_ELAPSED:33.953774
;LAYER:13
;TYPE:WALL-OUTER
;MESH:/tmp/upohsd0e.stl
G1 F600 X109.8 Y0.2 E9.457496 ; Adjusted E for belt wall
G92 E9.551070 ; Reset E to pre-compensated value
G1 X109.8 Y0.933 E9.57546
G1 X100.2 Y0.933 E9.89493
G1 X100.2 Y0.2 E9.91933
G0 F9000 X100.4 Y0.2
;MESH:NONMESH
G0 F600 X100.4 Y0.2 Z4.245
G0 F9000 X100.2 Y0.2
;TIME_ELAPSED:36.152134
;LAYER:14
;TYPE:WALL-OUTER
;MESH:/tmp/upohsd0e.stl
G1 F600 X109.8 Y0.2 E10.145229 ; Adjusted E for belt wall
G92 E10.238800 ; Reset E to pre-compensated value
G1 X109.8 Y0.933 E10.2632
G1 X100.2 Y0.933 E10.58267
G1 X100.2 Y0.2 E10.60706
G0 F9000 X100.4 Y0.2
;MESH:NONMESH
G0 F600 X100.4 Y0.2 Z4.528
G0 F9000 X100.2 Y0.2
;TIME_ELAPSED:38.350494
;LAYER:15
;TYPE:WALL-OUTER
;MESH:/tmp/upohsd0e.stl
G1 F600 X109.8 Y0.2 E10.832966 ; Adjusted E for belt wall
G92 E10.926540 ; Reset E to pre-compensated value
G1 X109.8 Y0.933 E10.95093
G1 X100.2 Y0.933 E11.27041
G1 X100.2 Y0.2 E11.2948
G0 F9000 X100.4 Y0.2
;MESH:NONMESH
G0 F600 X100.4 Y0.2 Z4.811
G0 F9000 X100.2 Y0.2
;TIME_ELAPSED:40.548854
;LAYER:16
;TYPE:WALL-OUTER
;MESH:/tmp/upohsd0e.stl
G1 F600 X109.8 Y0.2 E11.520706 ; Adjusted E for belt wall
G92 E11.614280 ; Reset E to pre-compensated value
G1 X109.8 Y0.933 E11.63867
G1 X100.2 Y0.933 E11.95814
G1 X100.2 Y0.2 E11.98254
G0 F9000 X100.4 Y0.2
;MESH:NONMESH
G0 F600 X100.4 Y0.2 Z5.094
G0 F9000 X100.2 Y0.2
;TIME_ELAPSED:42.747214
;LAYER:17
;TYPE:WALL-OUTER
;MESH:/tmp/upohsd0e.stl
G1 F600 X109.8 Y0.2 E12.208439 ; Adjusted E for belt wall
G92 E12.302010 ; Reset E to pre-compensated value
G1 X109.8 Y0.933 E12.3264
G1 X100.2 Y0.933 E12.64588
G1 X100.2 Y0.2 E12.67027
G0 F9000 X100.4 Y0.2
;MESH:NONMESH
G0 F600 X100.4 Y0.2 Z5.377
G0 F9000 X100.2 Y0.2
;TIME_ELAPSED:44.945574
;LAYER:18
;TYPE:WALL-OUTER
;MESH:/tmp/upohsd0e.stl
G1 F600 X109.8 Y0.2 E12.896176 ; Adjusted E for belt wall
G92 E12.989750 ; Reset E to pre-compensated value
G1 X109.8 Y0.933 E13.01414
G1 X100.2 Y0.933 E13.33362
G1 X100.2 Y0.2 E13.35801
G0 F9000 X100.4 Y0.2
;MESH:NONMESH
G0 F600 X100.4 Y0.2 Z5.66
G0 F9000 X100.2 Y0.2
;TIME_ELAPSED:47.143934
;LAYER:19
;TYPE:WALL-OUTER
;MESH:/tmp/upohsd0e.stl
G1 F600 X109.8 Y0.2 E13.583909 ; Adjusted E for belt wall
G92 E13.677480 ; Reset E to pre-compensated value
G1 X109.8 Y0.933 E13.70188
G1 X100.2 Y0.933 E14.02135
G1 X100.2 Y0.2 E14.04575
G0 F9000 X100.4 Y0.2
;MESH:NONMESH
G0 F600 X100.4 Y0.2 Z5.943
G0 F9000 X100.2 Y0.2
;TIME_ELAPSED:49.342294
;LAYER:20
;TYPE:WALL-OUTER
;MESH:/tmp/upohsd0e.stl
G1 F600 X109.8 Y0.2 E14.271649 ; Adjusted E for belt wall
G92 E14.365220 ; Reset E to pre-compensated value
G1 X109.8 Y0.933 E14.38961
G1 X100.2 Y0.933 E14.70909
G1 X100.2 Y0.2 E14.73348
G0 F9000 X100.4 Y0.2
;MESH:NONMESH
G0 F600 X100.4 Y0.2 Z6.226
G0 F9000 X100.2 Y0.2
;TIME_ELAPSED:51.540654
;LAYER:21
;TYPE:WALL-OUTER
;MESH:/tmp/upohsd0e.stl
G1 F600 X109.8 Y0.2 E14.959386 ; Adjusted E for belt wall
G92 E15.052960 ; Reset E to pre-compensated value
G1 X109.8 Y0.933 E15.07735
G1 X100.2 Y0.933 E15.39682
G1 X100.2 Y0.2 E15.42122
G0 F9000 X100.4 Y0.2
;MESH:NONMESH
G0 F600 X100.4 Y0.2 Z6.509
G0 F9000 X100.2 Y0.2
;TIME_ELAPSED:53.739014
;LAYER:22
;TYPE:WALL-OUTER
;MESH:/tmp/upohsd0e.stl
G1 F600 X109.8 Y0.2 E15.647119 ; Adjusted E for belt wall
G92 E15.740690 ; Reset E to pre-compensated value
G1 X109.8 Y0.933 E15.76509
G1 X100.2 Y0.933 E16.08456
G1 X100.2 Y0.2 E16.10895
G0 F9000 X100.4 Y0.2
;MESH:NONMESH
G0 F600 X100.4 Y0.2 Z6.792
G0 F9000 X100.2 Y0.2
;TIME_ELAPSED:55.937374
;LAYER:23
;TYPE:WALL-OUTER
;MESH:/tmp/upohsd0e.stl
G1 F600 X109.8 Y0.2 E16.334856 ; Adjusted E for belt wall
G92 E16.428430 ; Reset E to pre-compensated value
G1 X109.8 Y0.933 E16.45282
G1 X100.2 Y0.933 E16.7723
G1 X100.2 Y0.2 E16.79669
G0 F9000 X100.4 Y0.2
;MESH:NONMESH
G0 F600 X100.4 Y0.2 Z7.075
G0 F9000 X100.2 Y0.2
;TIME_ELAPSED:58.135734
;LAYER:24
;TYPE:WALL-OUTER
;MESH:/tmp/upohsd0e.stl
G1 F600 X109.8 Y0.2 E17.022589 ; Adjusted E for belt wall
G92 E17.116160 ; Reset E to pre-compensated value
G1 X109.8 Y0.933 E17.14056
G1 X100.2 Y0.933 E17.46003
G1 X100.2 Y0.2 E17.48443
G0 F9000 X100.4 Y0.2
;MESH:NONMESH
G0 F600 X100.4 Y0.2 Z7.358
G0 F9000 X100.2 Y0.2
;TIME_ELAPSED:60.334094
;LAYER:25
;TYPE:WALL-OUTER
;MESH:/tmp/upohsd0e.stl
G1 F600 X109.8 Y0.2 E17.710329 ; Adjusted E for belt wall
G92 E17.803900 ; Reset E to pre-compensated value
G1 X109.8 Y0.933 E17.82829
G1 X100.2 Y0.933 E18.14777
G1 X100.2 Y0.2 E18.17216
G0 F9000 X100.4 Y0.2
;MESH:NONMESH
G0 F600 X100.4 Y0.2 Z7.641
G0 F9000 X100.2 Y0.2
;TIME_ELAPSED:62.532454
;LAYER:26
;TYPE:WALL-OUTER
;MESH:/tmp/upohsd0e.stl
G1 F600 X109.8 Y0.2 E18.398066 ; Adjusted E for belt wall
G92 E18.491640 ; Reset E to pre-compensated value
G1 X109.8 Y0.933 E18.51603
G1 X100.2 Y0.933 E18.83551
G1 X100.2 Y0.2 E18.8599
G0 F9000 X100.4 Y0.2
;MESH:NONMESH
G0 F600 X100.4 Y0.2 Z7.924
G0 F9000 X100.2 Y0.2
;TIME_ELAPSED:64.730814
;LAYER:27
;TYPE:WALL-OUTER
;MESH:/tmp/upohsd0e.stl
G1 F600 X109.8 Y0.2 E19.085799 ; Adjusted E for belt wall
G92 E19.179370 ; Reset E to pre-compensated value
G1 X109.8 Y0.933 E19.20377
G1 X100.2 Y0.933 E19.52324
G1 X100.2 Y0.2 E19.54763
G0 F9000 X100.4 Y0.2
;MESH:NONMESH
G0 F600 X100.4 Y0.2 Z8.207
G0 F9000 X100.2 Y0.2
;TIME_ELAPSED:66.929174
;LAYER:28
;TYPE:WALL-OUTER
;MESH:/tmp/upohsd0e.stl
G1 F600 X109.8 Y0.2 E19.773536 ; Adjusted E for belt wall
G92 E19.867110 ; Reset E to pre-compensated value
G1 X109.8 Y0.933 E19.8915
G1 X100.2 Y0.933 E20.21098
G1 X100.2 Y0.2 E20.23537
G0 F9000 X100.4 Y0.2
;MESH:NONMESH
G0 F600 X100.4 Y0.2 Z8.49
G0 F9000 X100.2 Y0.2
;TIME_ELAPSED:69.127534
;LAYER:29
;TYPE:WALL-OUTER
;MESH:/tmp/upohsd0e.stl
G1 F600 X109.8 Y0.2 E20.461276 ; Adjusted E for belt wall
G92 E20.554850 ; Reset E to pre-compensated value
G1 X109.8 Y0.933 E20.57924
G1 X100.2 Y0.933 E20.89871
G1 X100.2 Y0.2 E20.92311
G0 F9000 X100.4 Y0.2
;MESH:NONMESH
G0 F600 X100.4 Y0.2 Z8.773
G0 F9000 X100.2 Y0.2
;TIME_ELAPSED:71.325895
;LAYER:30
;TYPE:WALL-OUTER
;MESH:/tmp/upohsd0e.stl
G1 F600 X109.8 Y0.2 E21.149009 ; Adjusted E for belt wall
G92 E21.242580 ; Reset E to pre-compensated value
G1 X109.8 Y0.933 E21.26698
G1 X100.2 Y0.933 E21.58645
G1 X100.2 Y0.2 E21.61084
G0 F9000 X100.4 Y0.2
;MESH:NONMESH
G0 F600 X100.4 Y0.2 Z9.056
G0 F9000 X100.2 Y0.2
;TIME_ELAPSED:73.524255
;LAYER:31
;TYPE:WALL-OUTER
;MESH:/tmp/upohsd0e.stl
G1 F600 X109.8 Y0.2 E21.836746 ; Adjusted E for belt wall
G92 E21.930320 ; Reset E to pre-compensated value
G1 X109.8 Y0.933 E21.95471
G1 X100.2 Y0.933 E22.27419
G1 X100.2 Y0.2 E22.29858
G0 F9000 X100.4 Y0.2
;MESH:NONMESH
G0 F600 X100.4 Y0.2 Z9.339
G0 F9000 X100.2 Y0.2
;TIME_ELAPSED:75.722615
;LAYER:32
;TYPE:WALL-OUTER
;MESH:/tmp/upohsd0e.stl
G1 F600 X109.8 Y0.2 E22.524479 ; Adjusted E for belt wall
G92 E22.618050 ; Reset E to pre-compensated value
G1 X109.8 Y0.933 E22.64245
G1 X100.2 Y0.933 E22.96192
G1 X100.2 Y0.2 E22.98632
G0 F9000 X100.4 Y0.2
;MESH:NONMESH
G0 F600 X100.4 Y0.2 Z9.622
G0 F9000 X100.2 Y0.2
;TIME_ELAPSED:77.920975
;LAYER:33
;TYPE:WALL-OUTER
;MESH:/tmp/upohsd0e.stl
G1 F600 X109.8 Y0.2 E23.212219 ; Adjusted E for belt wall
G92 E23.305790 ; Reset E to pre-compensated value
G1 X109.8 Y0.933 E23.33018
G1 X100.2 Y0.933 E23.64966
G1 X100.2 Y0.2 E23.67405
G0 F9000 X100.4 Y0.2
;MESH:NONMESH
G0 F600 X100.4 Y0.2 Z9.905
G0 F9000 X100.2 Y0.933
;TIME_ELAPSED:80.155673
;LAYER:34
;TYPE:WALL-OUTER
;MESH:/tmp/upohsd0e.stl
G1 F600 X100.2 Y0.206 E23.69825
G1 X100.206 Y0.2 E23.698448 ; Adjusted E for belt wall
G92 E23.698530 ; Reset E to pre-compensated value
G1 X109.8 Y0.2 E23.924288 ; Adjusted E for belt wall
G92 E24.017800 ; Reset E to pre-compensated value
G1 X109.8 Y0.933 E24.0422
G1 X100.2 Y0.933 E24.36167
G0 F9000 X100.2 Y0.733
;MESH:NONMESH
G0 F600 X100.2 Y0.733 Z10.188
G0 F9000 X100.2 Y0.933
;TIME_ELAPSED:82.353681
;LAYER:35
;TYPE:WALL-OUTER
;MESH:/tmp/upohsd0e.stl
G1 F600 X100.2 Y0.606 E24.37255
G1 X100.63 Y0.2 E24.39223
G1 X109.8 Y0.2 E24.608018 ; Adjusted E for belt wall
G92 E24.697400 ; Reset E to pre-compensated value
G1 X109.8 Y0.933 E24.72179
G1 X100.2 Y0.933 E25.04127
G0 F9000 X100.2 Y0.733
;MESH:NONMESH
G0 F600 X100.2 Y0.733 Z10.471
G0 F9000 X100.279 Y0.933
;TIME_ELAPSED:84.528943
;LAYER:36
;TYPE:WALL-OUTER
;MESH:/tmp/upohsd0e.stl
G1 F600 X101.054 Y0.2 E25.07677
G1 X109.8 Y0.2 E25.282573 ; Adjusted E for belt wall
G92 E25.367820 ; Reset E to pre-compensated value
G1 X109.8 Y0.933 E25.39221
G1 X100.279 Y0.933 E25.70906
G0 F9000 X100.424 Y0.796
;MESH:NONMESH
G0 F600 X100.424 Y0.796 Z10.754
G0 F9000 X100.704 Y0.933
;TIME_ELAPSED:86.676625
;LAYER:37
;TYPE:WALL-OUTER
;MESH:/tmp/upohsd0e.stl
G1 F600 X101.479 Y0.2 E25.74456
G1 X109.8 Y0.2 E25.940365 ; Adjusted E for belt wall
G92 E26.021470 ; Reset E to pre-compensated value
G1 X109.8 Y0.933 E26.04586
G1 X100.704 Y0.933 E26.34857
G0 F9000 X100.849 Y0.796
;MESH:NONMESH
G0 F600 X100.849 Y0.796 Z11.037
G0 F9000 X101.128 Y0.933
;TIME_ELAPSED:88.739239
;LAYER:38
;TYPE:WALL-OUTER
;MESH:/tmp/upohsd0e.stl
G1 F600 X101.904 Y0.2 E26.38409
G1 X109.8 Y0.2 E26.569896 ; Adjusted E for belt wall
G92 E26.646860 ; Reset E to pre-compensated value
G1 X109.8 Y0.933 E26.67125
G1 X101.128 Y0.933 E26.95984
G0 F9000 X101.273 Y0.796
;MESH:NONMESH
G0 F600 X101.273 Y0.796 Z11.32
G0 F9000 X101.553 Y0.933
;TIME_ELAPSED:90.717093
;LAYER:39
;TYPE:WALL-OUTER
;MESH:/tmp/upohsd0e.stl
G1 F600 X102.328 Y0.2 E26.99534
G1 X109.8 Y0.2 E27.171169 ; Adjusted E for belt wall
G92 E27.244000 ; Reset E to pre-compensated value
G1 X109.8 Y0.933 E27.26839
G1 X101.553 Y0.933 E27.54284
G0 F9000 X101.698 Y0.796
;MESH:NONMESH
G0 F600 X101.698 Y0.796 Z11.603
G0 F9000 X101.977 Y0.933
;TIME_ELAPSED:92.609907
;LAYER:40
;TYPE:WALL-OUTER
;MESH:/tmp/upohsd0e.stl
G1 F600 X102.753 Y0.2 E27.57837
G1 X109.8 Y0.2 E27.744194 ; Adjusted E for belt wall
G92 E27.812880 ; Reset E to pre-compensated value
G1 X109.8 Y0.933 E27.83727
G1 X101.977 Y0.933 E28.09761
G0 F9000 X102.122 Y0.796
;MESH:NONMESH
G0 F600 X102.122 Y0.796 Z11.886
G0 F9000 X102.402 Y0.933
;TIME_ELAPSED:94.417962
;LAYER:41
;TYPE:WALL-OUTER
;MESH:/tmp/upohsd0e.stl
G1 F600 X103.177 Y0.2 E28.13311
G1 X109.8 Y0.2 E28.288963 ; Adjusted E for belt wall
G92 E28.353520 ; Reset E to pre-compensated value
G1 X109.8 Y0.933 E28.37791
G1 X102.402 Y0.933 E28.62411
G0 F9000 X102.547 Y0.796
;MESH:NONMESH
G0 F600 X102.547 Y0.796 Z12.169
G0 F9000 X102.826 Y0.933
;TIME_ELAPSED:96.140976
;LAYER:42
;TYPE:WALL-OUTER
;MESH:/tmp/upohsd0e.stl
G1 F600 X103.602 Y0.2 E28.65963
G1 X109.8 Y0.2 E28.805478 ; Adjusted E for belt wall
G92 E28.865890 ; Reset E to pre-compensated value
G1 X109.8 Y0.933 E28.89028
G1 X102.826 Y0.933 E29.12237
G0 F9000 X102.971 Y0.796
;MESH:NONMESH
G0 F600 X102.971 Y0.796 Z12.452
G0 F9000 X103.251 Y0.933
;TIME_ELAPSED:97.779231
;LAYER:43
;TYPE:WALL-OUTER
;MESH:/tmp/upohsd0e.stl
G1 F600 X104.026 Y0.2 E29.15787
G1 X109.8 Y0.2 E29.293741 ; Adjusted E for belt wall
G92 E29.350020 ; Reset E to pre-compensated value
G1 X109.8 Y0.933 E29.37441
G1 X103.251 Y0.933 E29.59235
G0 F9000 X103.396 Y0.796
;MESH:NONMESH
G0 F600 X103.396 Y0.796 Z12.735
G0 F9000 X103.675 Y0.933
;TIME_ELAPSED:99.332445
;LAYER:44
;TYPE:WALL-OUTER
;MESH:/tmp/upohsd0e.stl
G1 F600 X104.451 Y0.2 E29.62788
G1 X109.8 Y0.2 E29.753745 ; Adjusted E for belt wall
G92 E29.805880 ; Reset E to pre-compensated value
G1 X109.8 Y0.933 E29.83028
G1 X103.675 Y0.933 E30.03411
G0 F9000 X103.82 Y0.796
;MESH:NONMESH
G0 F600 X103.82 Y0.796 Z13.018
G0 F9000 X104.1 Y0.933
;TIME_ELAPSED:100.800899
