;FLAVOR:Marlin
;TIME:6666
;Filament used: 0m
;Layer height: 0.2
;MINX:2.14748e+06
;MINY:2.14748e+06
;MINZ:2.14748e+06
;MAXX:-2.14748e+06
;MAXY:-2.14748e+06
;MAXZ:-2.14748e+06

;Generated with Cura_SteamEngine 4.7.1
M104 S210
M105
M109 S210
M82 ;absolute extrusion mode
G28 ;Home
G1 Z15.0 F6000 ;Move the platform down 15mm
;Prime the extruder
G92 E0
G1 F200 E3
G92 E0
G92 E0
G92 E0
G1 F1500 E-6.5
;LAYER_COUNT:49
;LAYER:0
M107
;MESH:/tmp/9qqrkinx.stl
G0 F3600 X59.8 Y44.8 Z0.3
;TYPE:WALL-OUTER
G1 F1500 E0
G1 F1800 X59.8 Y55.2 E0.19563
G1 X69.8 Y55.2 E0.38374
G1 X69.8 Y74.8 E0.75242
G1 X50.2 Y74.8 E1.12111
G1 X50.2 Y64.8 E1.30921
G1 X30.2 Y64.8 E1.68543
G1 X30.2 Y55.2 E1.86601
G1 X50.2 Y55.2 E2.24222
G1 X50.2 Y35.2 E2.61843
G1 X60.2 Y35.2 E2.80654
G1 X60.2 Y25.2 E2.99464
G1 X69.8 Y25.2 E3.17522
G1 X69.8 Y44.8 E3.54391
G1 X59.8 Y44.8 E3.73201
G0 F3600 X59.8 Y45
G0 X59.4 Y44.4
;TYPE:WALL-INNER
G1 F1800 X59.4 Y55.6 E3.94269
G1 X69.4 Y55.6 E4.1308
G1 X69.4 Y74.4 E4.48444
G1 X50.6 Y74.4 E4.83808
G1 X50.6 Y64.4 E5.02618
G1 X30.6 Y64.4 E5.40239
G1 X30.6 Y55.6 E5.56792
G1 X50.6 Y55.6 E5.94414
G1 X50.6 Y35.6 E6.32035
G1 X60.6 Y35.6 E6.50845
G1 X60.6 Y25.6 E6.69656
G1 X69.4 Y25.6 E6.86209
G1 X69.4 Y44.4 E7.21573
G1 X59.4 Y44.4 E7.40384
G0 F3600 X59.01 Y44.01
;TYPE:SKIN
G1 F1800 X59.01 Y55.99 E7.62919
G1 X69.01 Y55.99 E7.81729
G1 X69.01 Y74.01 E8.15626
G1 X50.99 Y74.01 E8.49522
G1 X50.99 Y64.01 E8.68333
G1 X30.99 Y64.01 E9.05954
G1 X30.99 Y55.99 E9.2104
G1 X50.99 Y55.99 E9.58661
G1 X50.99 Y35.99 E9.96282
G1 X60.99 Y35.99 E10.15093
G1 X60.99 Y25.99 E10.33903
G1 X69.01 Y25.99 E10.48989
G1 X69.01 Y44.01 E10.82886
G1 X59.01 Y44.01 E11.01697
G0 F3600 X68.829 Y26.403
G1 F1800 X68.596 Y26.17 E11.02317
G0 F3600 X68.03 Y26.17
G1 F1800 X68.829 Y26.969 E11.04442
G0 F3600 X68.829 Y27.534
G1 F1800 X67.465 Y26.17 E11.08071
G0 F3600 X66.899 Y26.17
G1 F1800 X68.829 Y28.1 E11.13205
G0 F3600 X68.829 Y28.666
G1 F1800 X66.333 Y26.17 E11.19845
G0 F3600 X65.768 Y26.17
G1 F1800 X68.829 Y29.231 E11.27988
G0 F3600 X68.829 Y29.797
G1 F1800 X65.202 Y26.17 E11.37636
G0 F3600 X64.636 Y26.17
G1 F1800 X68.829 Y30.363 E11.4879
G0 F3600 X68.829 Y30.928
G1 F1800 X64.07 Y26.17 E11.61449
G0 F3600 X63.505 Y26.17
G1 F1800 X68.829 Y31.494 E11.75612
G0 F3600 X68.829 Y32.06
G1 F1800 X62.939 Y26.17 E11.91281
G0 F3600 X62.373 Y26.17
G1 F1800 X68.829 Y32.625 E12.08454
G0 F3600 X68.829 Y33.191
G1 F1800 X61.808 Y26.17 E12.27131
G0 F3600 X61.242 Y26.17
G1 F1800 X68.829 Y33.757 E12.47314
G0 F3600 X68.829 Y34.322
G1 F1800 X61.168 Y26.662 E12.67693
G0 F3600 X61.168 Y27.227
G1 F1800 X68.829 Y34.888 E12.88073
G0 F3600 X68.829 Y35.454
G1 F1800 X61.168 Y27.793 E13.08453
G0 F3600 X61.168 Y28.359
G1 F1800 X68.829 Y36.02 E13.28832
G0 F3600 X68.829 Y36.585
G1 F1800 X61.168 Y28.924 E13.49212
G0 F3600 X61.168 Y29.49
G1 F1800 X68.829 Y37.151 E13.69592
G0 F3600 X68.829 Y37.717
G1 F1800 X61.168 Y30.056 E13.89972
G0 F3600 X61.168 Y30.621
G1 F1800 X68.829 Y38.282 E14.10352
G0 F3600 X68.829 Y38.848
G1 F1800 X61.168 Y31.187 E14.30732
G0 F3600 X61.168 Y31.753
G1 F1800 X68.829 Y39.414 E14.51112
G0 F3600 X68.829 Y39.979
G1 F1800 X61.168 Y32.319 E14.7149
G0 F3600 X61.168 Y32.884
G1 F1800 X68.829 Y40.545 E14.9187
G0 F3600 X68.829 Y41.111
G1 F1800 X61.168 Y33.45 E15.1225
G0 F3600 X61.168 Y34.016
G1 F1800 X68.829 Y41.676 E15.32629
G0 F3600 X68.829 Y42.242
G1 F1800 X61.168 Y34.581 E15.53009
G0 F3600 X61.168 Y35.147
G1 F1800 X68.829 Y42.808 E15.73389
G0 F3600 X68.829 Y43.373
G1 F1800 X61.168 Y35.713 E15.93767
G0 F3600 X61.06 Y36.169
G1 F1800 X68.72 Y43.83 E16.14146
G0 F3600 X68.154 Y43.83
G1 F1800 X60.494 Y36.169 E16.34524
G0 F3600 X59.928 Y36.169
G1 F1800 X67.588 Y43.83 E16.54903
G0 F3600 X67.023 Y43.83
G1 F1800 X59.363 Y36.169 E16.75281
G0 F3600 X58.797 Y36.169
G1 F1800 X66.457 Y43.83 E16.9566
G0 F3600 X65.891 Y43.83
G1 F1800 X58.231 Y36.169 E17.16039
G0 F3600 X57.665 Y36.169
G1 F1800 X65.326 Y43.83 E17.36419
G0 F3600 X64.76 Y43.83
G1 F1800 X57.1 Y36.169 E17.56797
G0 F3600 X56.534 Y36.169
G1 F1800 X64.194 Y43.83 E17.77176
G0 F3600 X63.629 Y43.83
G1 F1800 X55.968 Y36.169 E17.97556
G0 F3600 X55.403 Y36.169
G1 F1800 X63.063 Y43.83 E18.17934
G0 F3600 X62.497 Y43.83
G1 F1800 X54.837 Y36.169 E18.38313
G0 F3600 X54.271 Y36.169
G1 F1800 X61.931 Y43.83 E18.58691
G0 F3600 X61.366 Y43.83
G1 F1800 X53.706 Y36.169 E18.7907
G0 F3600 X53.14 Y36.169
G1 F1800 X60.8 Y43.83 E18.99448
G0 F3600 X60.234 Y43.83
G1 F1800 X52.574 Y36.169 E19.19827
G0 F3600 X52.009 Y36.169
G1 F1800 X59.669 Y43.83 E19.40206
G0 F3600 X59.103 Y43.83
G1 F1800 X51.443 Y36.169 E19.60584
G0 F3600 X51.169 Y36.461
G1 F1800 X58.829 Y44.121 E19.80961
G0 F3600 X58.829 Y44.687
G1 F1800 X51.169 Y37.026 E20.0134
G0 F3600 X51.169 Y37.592
G1 F1800 X58.829 Y45.252 E20.21717
G0 F3600 X58.829 Y45.818
G1 F1800 X51.169 Y38.158 E20.42094
G0 F3600 X51.169 Y38.723
G1 F1800 X58.829 Y46.384 E20.62473
G0 F3600 X58.829 Y46.949
G1 F1800 X51.169 Y39.289 E20.8285
G0 F3600 X51.169 Y39.855
G1 F1800 X58.829 Y47.515 E21.03227
G0 F3600 X58.829 Y48.081
G1 F1800 X51.169 Y40.421 E21.23605
G0 F3600 X51.169 Y40.986
G1 F1800 X58.829 Y48.646 E21.43982
G0 F3600 X58.829 Y49.212
G1 F1800 X51.169 Y41.552 E21.64359
G0 F3600 X51.169 Y42.118
G1 F1800 X58.829 Y49.778 E21.84736
G0 F3600 X58.829 Y50.343
G1 F1800 X51.169 Y42.683 E22.05114
G0 F3600 X51.169 Y43.249
G1 F1800 X58.829 Y50.909 E22.25491
G0 F3600 X58.829 Y51.475
G1 F1800 X51.169 Y43.815 E22.45868
G0 F3600 X51.169 Y44.38
G1 F1800 X58.829 Y52.04 E22.66245
G0 F3600 X58.829 Y52.606
G1 F1800 X51.169 Y44.946 E22.86623
G0 F3600 X51.169 Y45.512
G1 F1800 X58.829 Y53.172 E23.07
G0 F3600 X58.829 Y53.737
G1 F1800 X51.169 Y46.077 E23.27377
G0 F3600 X51.169 Y46.643
G1 F1800 X58.829 Y54.303 E23.47754
G0 F3600 X58.829 Y54.869
G1 F1800 X51.169 Y47.209 E23.68132
G0 F3600 X51.169 Y47.774
G1 F1800 X58.829 Y55.435 E23.8851
G0 F3600 X58.829 Y56
G1 F1800 X51.169 Y48.34 E24.08887
G0 F3600 X51.169 Y48.906
G1 F1800 X68.829 Y66.567 E24.55868
G0 F3600 X68.829 Y67.132
G1 F1800 X51.169 Y49.472 E25.02848
G0 F3600 X51.169 Y50.037
G1 F1800 X68.829 Y67.698 E25.49828
G0 F3600 X68.829 Y68.264
G1 F1800 X51.169 Y50.603 E25.96809
G0 F3600 X51.169 Y51.169
G1 F1800 X68.829 Y68.829 E26.43788
G0 F3600 X68.829 Y69.395
G1 F1800 X51.169 Y51.734 E26.90769
G0 F3600 X51.169 Y52.3
G1 F1800 X68.829 Y69.961 E27.3775
G0 F3600 X68.829 Y70.526
G1 F1800 X51.169 Y52.866 E27.84729
G0 F3600 X51.169 Y53.431
G1 F1800 X68.829 Y71.092 E28.3171
G0 F3600 X68.829 Y71.658
G1 F1800 X51.169 Y53.997 E28.78691
G0 F3600 X51.169 Y54.563
G1 F1800 X68.829 Y72.223 E29.2567
G0 F3600 X68.829 Y72.789
G1 F1800 X51.169 Y55.128 E29.72651
G0 F3600 X51.169 Y55.694
G1 F1800 X68.829 Y73.355 E30.19631
G0 F3600 X68.737 Y73.829
G1 F1800 X51.077 Y56.169 E30.66611
G0 F3600 X50.512 Y56.169
G1 F1800 X68.172 Y73.829 E31.1359
G0 F3600 X67.606 Y73.829
G1 F1800 X49.946 Y56.169 E31.6057
G0 F3600 X49.38 Y56.169
G1 F1800 X67.04 Y73.829 E32.07549
G0 F3600 X66.475 Y73.829
G1 F1800 X48.815 Y56.169 E32.54528
G0 F3600 X48.249 Y56.169
G1 F1800 X65.909 Y73.829 E33.01508
G0 F3600 X65.343 Y73.829
G1 F1800 X47.683 Y56.169 E33.48487
G0 F3600 X47.118 Y56.169
G1 F1800 X64.778 Y73.829 E33.95467
G0 F3600 X64.212 Y73.829
G1 F1800 X46.552 Y56.169 E34.42446
G0 F3600 X45.986 Y56.169
G1 F1800 X63.646 Y73.829 E34.89425
G0 F3600 X63.08 Y73.829
G1 F1800 X45.421 Y56.169 E35.36403
G0 F3600 X44.855 Y56.169
G1 F1800 X62.515 Y73.829 E35.83383
G0 F3600 X61.949 Y73.829
G1 F1800 X44.289 Y56.169 E36.30362
G0 F3600 X43.723 Y56.169
G1 F1800 X61.383 Y73.829 E36.77342
G0 F3600 X60.818 Y73.829
G1 F1800 X51.169 Y64.18 E37.0301
G0 F3600 X50.818 Y63.829
G1 F1800 X43.158 Y56.169 E37.23387
G0 F3600 X42.592 Y56.169
G1 F1800 X50.252 Y63.829 E37.43764
G0 F3600 X49.686 Y63.829
G1 F1800 X42.026 Y56.169 E37.64142
G0 F3600 X41.461 Y56.169
G1 F1800 X49.121 Y63.829 E37.84519
G0 F3600 X48.555 Y63.829
G1 F1800 X40.895 Y56.169 E38.04896
G0 F3600 X40.329 Y56.169
G1 F1800 X47.989 Y63.829 E38.25273
G0 F3600 X47.424 Y63.829
G1 F1800 X39.764 Y56.169 E38.45651
G0 F3600 X39.198 Y56.169
G1 F1800 X46.858 Y63.829 E38.66028
G0 F3600 X46.292 Y63.829
G1 F1800 X38.632 Y56.169 E38.86405
G0 F3600 X38.067 Y56.169
G1 F1800 X45.727 Y63.829 E39.06782
G0 F3600 X45.161 Y63.829
G1 F1800 X37.501 Y56.169 E39.2716
G0 F3600 X36.935 Y56.169
G1 F1800 X44.595 Y63.829 E39.47537
G0 F3600 X44.03 Y63.829
G1 F1800 X36.37 Y56.169 E39.67914
G0 F3600 X35.804 Y56.169
G1 F1800 X43.464 Y63.829 E39.88291
G0 F3600 X42.898 Y63.829
G1 F1800 X35.238 Y56.169 E40.08669
G0 F3600 X34.672 Y56.169
G1 F1800 X42.333 Y63.829 E40.29047
G0 F3600 X41.767 Y63.829
G1 F1800 X34.107 Y56.169 E40.49424
G0 F3600 X33.541 Y56.169
G1 F1800 X41.201 Y63.829 E40.69802
G0 F3600 X40.636 Y63.829
G1 F1800 X32.975 Y56.169 E40.9018
G0 F3600 X32.41 Y56.169
G1 F1800 X40.07 Y63.829 E41.10557
G0 F3600 X39.504 Y63.829
G1 F1800 X31.844 Y56.169 E41.30935
G0 F3600 X31.278 Y56.169
G1 F1800 X38.938 Y63.829 E41.51312
G0 F3600 X38.373 Y63.829
G1 F1800 X31.169 Y56.625 E41.70476
G0 F3600 X31.169 Y57.191
G1 F1800 X37.807 Y63.829 E41.88135
G0 F3600 X37.241 Y63.829
G1 F1800 X31.169 Y57.757 E42.04287
G0 F3600 X31.169 Y58.322
G1 F1800 X36.676 Y63.829 E42.18937
G0 F3600 X36.11 Y63.829
G1 F1800 X31.169 Y58.888 E42.32081
G0 F3600 X31.169 Y59.454
G1 F1800 X35.544 Y63.829 E42.4372
G0 F3600 X34.979 Y63.829
G1 F1800 X31.169 Y60.019 E42.53855
G0 F3600 X31.169 Y60.585
G1 F1800 X34.413 Y63.829 E42.62485
G0 F3600 X33.847 Y63.829
G1 F1800 X31.169 Y61.151 E42.69609
G0 F3600 X31.169 Y61.716
G1 F1800 X33.282 Y63.829 E42.7523
G0 F3600 X32.716 Y63.829
G1 F1800 X31.169 Y62.282 E42.79345
G0 F3600 X31.169 Y62.848
G1 F1800 X32.15 Y63.829 E42.81955
G0 F3600 X31.585 Y63.829
G1 F1800 X31.169 Y63.414 E42.8306
G0 F3600 X50.628 Y64.372
G0 X51.169 Y64.746
G1 F1800 X60.252 Y73.829 E43.07223
G0 F3600 X59.686 Y73.829
G1 F1800 X51.169 Y65.311 E43.29882
G0 F3600 X51.169 Y65.877
G1 F1800 X59.121 Y73.829 E43.51036
G0 F3600 X58.555 Y73.829
G1 F1800 X51.169 Y66.443 E43.70684
G0 F3600 X51.169 Y67.008
G1 F1800 X57.989 Y73.829 E43.88828
G0 F3600 X57.424 Y73.829
G1 F1800 X51.169 Y67.574 E44.05468
G0 F3600 X51.169 Y68.14
G1 F1800 X56.858 Y73.829 E44.20601
G0 F3600 X56.292 Y73.829
G1 F1800 X51.169 Y68.706 E44.3423
G0 F3600 X51.169 Y69.271
G1 F1800 X55.727 Y73.829 E44.46355
G0 F3600 X55.161 Y73.829
G1 F1800 X51.169 Y69.837 E44.56975
G0 F3600 X51.169 Y70.403
G1 F1800 X54.595 Y73.829 E44.66088
G0 F3600 X54.03 Y73.829
G1 F1800 X51.169 Y70.968 E44.73699
G0 F3600 X51.169 Y71.534
G1 F1800 X53.464 Y73.829 E44.79805
G0 F3600 X52.898 Y73.829
G1 F1800 X51.169 Y72.1 E44.84404
G0 F3600 X51.169 Y72.665
G1 F1800 X52.332 Y73.829 E44.87499
G0 F3600 X51.767 Y73.829
G1 F1800 X51.169 Y73.231 E44.8909
G1 X51.099 Y73.161
G0 F3600 X58.998 Y56.17
G1 F1800 X68.829 Y66.001 E45.15243
G0 F3600 X68.829 Y65.435
G1 F1800 X59.564 Y56.17 E45.39889
G0 F3600 X60.13 Y56.17
G1 F1800 X68.829 Y64.869 E45.63031
G0 F3600 X68.829 Y64.304
G1 F1800 X60.695 Y56.17 E45.84669
G0 F3600 X61.261 Y56.17
G1 F1800 X68.829 Y63.738 E46.04801
G0 F3600 X68.829 Y63.172
G1 F1800 X61.827 Y56.17 E46.23428
G0 F3600 X62.392 Y56.17
G1 F1800 X68.829 Y62.607 E46.40552
G0 F3600 X68.829 Y62.041
G1 F1800 X62.958 Y56.17 E46.5617
G0 F3600 X63.524 Y56.17
G1 F1800 X68.829 Y61.475 E46.70283
G0 F3600 X68.829 Y60.91
G1 F1800 X64.09 Y56.17 E46.82891
G0 F3600 X64.655 Y56.17
G1 F1800 X68.829 Y60.344 E46.93994
G0 F3600 X68.829 Y59.778
G1 F1800 X65.221 Y56.17 E47.03592
G0 F3600 X65.787 Y56.17
G1 F1800 X68.829 Y59.213 E47.11686
G0 F3600 X68.829 Y58.647
G1 F1800 X66.352 Y56.17 E47.18275
G0 F3600 X66.918 Y56.17
G1 F1800 X68.829 Y58.081 E47.23359
G0 F3600 X68.829 Y57.516
G1 F1800 X67.484 Y56.17 E47.26938
G0 F3600 X68.049 Y56.17
G1 F1800 X68.829 Y56.95 E47.29013
G0 F3600 X68.829 Y56.384
G1 F1800 X68.615 Y56.17 E47.29583
;MESH:NONMESH
G0 F600 X68.615 Y56.17 Z0.5
G0 F3600 X59.372 Y55.628
G0 X59.33 Y44.33
G0 X59.4 Y44.4
;TIME_ELAPSED:91.696900
;LAYER:1
M106 S255
;TYPE:WALL-INNER
;MESH:/tmp/9qqrkinx.stl
G1 F2700 X59.4 Y55.6 E47.43628
G1 X69.4 Y55.6 E47.56168
G1 X69.4 Y74.4 E47.79744
G1 X50.6 Y74.4 E48.0332
G1 X50.6 Y64.4 E48.1586
G1 X30.6 Y64.4 E48.40941
G1 X30.6 Y55.6 E48.51977
G1 X50.6 Y55.6 E48.77057
G1 X50.6 Y35.6 E49.02138
G1 X60.6 Y35.6 E49.14679
G1 X60.6 Y25.6 E49.27219
G1 X69.4 Y25.6 E49.38254
G1 X69.4 Y44.4 E49.6183
G1 X59.4 Y44.4 E49.74371
G0 F5400 X59.8 Y44.8
;TYPE:WALL-OUTER
G1 F1800 X59.8 Y55.2 E49.87413
G1 X69.8 Y55.2 E49.99953
G1 X69.8 Y74.8 E50.24532
G1 X50.2 Y74.8 E50.49111
G1 X50.2 Y64.8 E50.61652
G1 X30.2 Y64.8 E50.86732
G1 X30.2 Y55.2 E50.98771
G1 X50.2 Y55.2 E51.23852
G1 X50.2 Y35.2 E51.48933
G1 X60.2 Y35.2 E51.61473
G1 X60.2 Y25.2 E51.74013
G1 X69.8 Y25.2 E51.86052
G1 X69.8 Y44.8 E52.10631
G1 X59.8 Y44.8 E52.23172
G0 F5400 X59.8 Y45
G0 X59.3 Y45
G0 X59.01 Y44.01
;TYPE:SKIN
G1 F1800 X59.01 Y55.99 E52.38195
G1 X69.01 Y55.99 E52.50735
G1 X69.01 Y74.01 E52.73333
G1 X50.99 Y74.01 E52.95931
G1 X50.99 Y64.01 E53.08471
G1 X30.99 Y64.01 E53.33552
G1 X30.99 Y55.99 E53.43609
G1 X50.99 Y55.99 E53.6869
G1 X50.99 Y35.99 E53.93771
G1 X60.99 Y35.99 E54.06311
G1 X60.99 Y25.99 E54.18852
G1 X69.01 Y25.99 E54.28909
G1 X69.01 Y44.01 E54.51507
G1 X59.01 Y44.01 E54.64047
G0 F5400 X51.169 Y36.511
G1 F1800 X51.511 Y36.169 E54.64654
G0 F5400 X52.077 Y36.169
G1 F1800 X51.169 Y37.077 E54.66264
G0 F5400 X51.169 Y37.642
G1 F1800 X52.642 Y36.169 E54.68876
G0 F5400 X53.208 Y36.169
G1 F1800 X51.169 Y38.208 E54.72492
G0 F5400 X51.169 Y38.774
G1 F1800 X53.774 Y36.169 E54.77112
G0 F5400 X54.339 Y36.169
G1 F1800 X51.169 Y39.339 E54.82734
G0 F5400 X51.169 Y39.905
G1 F1800 X54.905 Y36.169 E54.8936
G0 F5400 X55.471 Y36.169
G1 F1800 X51.169 Y40.471 E54.96989
G0 F5400 X51.169 Y41.036
G1 F1800 X56.036 Y36.169 E55.05621
G0 F5400 X56.602 Y36.169
G1 F1800 X51.169 Y41.602 E55.15256
G0 F5400 X51.169 Y42.168
G1 F1800 X57.168 Y36.169 E55.25895
G0 F5400 X57.733 Y36.169
G1 F1800 X51.169 Y42.733 E55.37536
G0 F5400 X51.169 Y43.299
G1 F1800 X58.299 Y36.169 E55.50181
G0 F5400 X58.865 Y36.169
G1 F1800 X51.169 Y43.865 E55.6383
G0 F5400 X51.169 Y44.431
G1 F1800 X59.43 Y36.169 E55.78482
G0 F5400 X59.996 Y36.169
G1 F1800 X51.169 Y44.996 E55.94136
G0 F5400 X51.169 Y45.562
G1 F1800 X60.562 Y36.169 E56.10794
G0 F5400 X61.127 Y36.169
G1 F1800 X51.169 Y46.128 E56.28456
G0 F5400 X51.169 Y46.693
G1 F1800 X68.829 Y29.034 E56.59774
G0 F5400 X68.829 Y28.468
G1 F1800 X61.168 Y36.128 E56.7336
G0 F5400 X61.168 Y35.563
G1 F1800 X68.829 Y27.903 E56.86946
G0 F5400 X68.829 Y27.337
G1 F1800 X61.168 Y34.997 E57.00531
G0 F5400 X61.168 Y34.431
G1 F1800 X68.829 Y26.771 E57.14117
G0 F5400 X68.829 Y26.206
G1 F1800 X61.168 Y33.866 E57.27703
G0 F5400 X61.168 Y33.3
G1 F1800 X68.299 Y26.17 E57.40349
G0 F5400 X67.733 Y26.17
G1 F1800 X61.168 Y32.734 E57.51991
G0 F5400 X61.168 Y32.169
G1 F1800 X67.168 Y26.17 E57.62631
G0 F5400 X66.602 Y26.17
G1 F1800 X61.168 Y31.603 E57.72267
G0 F5400 X61.168 Y31.037
G1 F1800 X66.036 Y26.17 E57.80899
G0 F5400 X65.471 Y26.17
G1 F1800 X61.168 Y30.472 E57.88529
G0 F5400 X61.168 Y29.906
G1 F1800 X64.905 Y26.17 E57.95156
G0 F5400 X64.339 Y26.17
G1 F1800 X61.168 Y29.34 E58.00779
G0 F5400 X61.168 Y28.775
G1 F1800 X63.773 Y26.17 E58.05399
G0 F5400 X63.208 Y26.17
G1 F1800 X61.168 Y28.209 E58.09016
G0 F5400 X61.168 Y27.643
G1 F1800 X62.642 Y26.17 E58.11629
G0 F5400 X62.076 Y26.17
G1 F1800 X61.168 Y27.077 E58.13238
G0 F5400 X61.168 Y26.512
G1 F1800 X61.511 Y26.17 E58.13846
G0 F5400 X68.829 Y29.6
G1 F1800 X51.169 Y47.259 E58.45165
G0 F5400 X51.169 Y47.825
G1 F1800 X68.829 Y30.165 E58.76484
G0 F5400 X68.829 Y30.731
G1 F1800 X51.169 Y48.39 E59.07803
G0 F5400 X51.169 Y48.956
G1 F1800 X68.829 Y31.297 E59.39122
G0 F5400 X68.829 Y31.862
G1 F1800 X51.169 Y49.522 E59.70441
G0 F5400 X51.169 Y50.087
G1 F1800 X68.829 Y32.428 E60.0176
G0 F5400 X68.829 Y32.994
G1 F1800 X51.169 Y50.653 E60.33079
G0 F5400 X51.169 Y51.219
G1 F1800 X68.829 Y33.559 E60.64398
G0 F5400 X68.829 Y34.125
G1 F1800 X59.124 Y43.83 E60.8161
G0 F5400 X58.829 Y44.125
G1 F1800 X51.169 Y51.784 E60.95194
G0 F5400 X51.169 Y52.35
G1 F1800 X58.829 Y44.691 E61.08778
G0 F5400 X58.829 Y45.256
G1 F1800 X51.169 Y52.916 E61.22362
G0 F5400 X51.169 Y53.482
G1 F1800 X58.829 Y45.822 E61.35947
