;FLAVOR:Marlin
;TIME:6666
;Filament used: 0m
;Layer height: 0.2
;MINX:2.14748e+06
;MINY:2.14748e+06
;MINZ:2.14748e+06
;MAXX:-2.14748e+06
;MAXY:-2.14748e+06
;MAXZ:-2.14748e+06

;Generated with Cura_SteamEngine 4.7.1
M104 S210
M105
M109 S210
M82 ;absolute extrusion mode
G28 ;Home
G1 Z15.0 F6000 ;Move the platform down 15mm
;Prime the extruder
G92 E0
G1 F200 E3
G92 E0
G92 E0
G92 E0
G1 F1500 E-6.5
;LAYER_COUNT:49
;LAYER:-9
M107
G0 F7200 X46.196 Y32.544 Z10
;TYPE:SUPPORT-INTERFACE
G1 F1500 E0
G1 F1350 X46.394 Y32.278 E0.41584
G1 X46.698 Y31.924 E1.001
G1 X46.815 Y31.796 E1.21847
G1 X46.909 Y31.709 E1.37909
G1 X47.204 Y31.45 E1.87138
G1 X47.419 Y31.283 E2.21277
G1 X47.65 Y31.127 E2.56233
G1 X47.918 Y30.969 E2.95247
G1 X48.175 Y30.839 E3.31364
G1 X48.445 Y30.723 E3.68216
G1 X48.701 Y30.631 E4.02329
G1 X48.993 Y30.547 E4.40432
G1 X49.254 Y30.491 E4.73907
G1 X49.574 Y30.443 E5.14485
G1 X50.067 Y30.405 E5.76493
G1 X50.218 Y30.399 E5.95444
G1 X50.885 Y30.332 E6.79509
G1 X51.551 Y30.179 E7.65203
G1 X52.191 Y29.942 E8.50788
G1 X52.797 Y29.627 E9.36436
G1 X53.358 Y29.237 E10.22117
G1 X53.866 Y28.78 E11.07807
G1 X54.311 Y28.263 E11.9335
G1 X54.688 Y27.694 E12.78946
G1 X54.989 Y27.081 E13.64585
G1 X55.211 Y26.435 E14.50246
G1 X55.35 Y25.768 E15.35688
G1 X55.401 Y25.176 E16.10202
G1 X55.406 Y25.04 E16.27268
G1 X55.427 Y24.699 E16.70112
G1 X55.465 Y24.392 E17.08904
G1 X55.52 Y24.108 E17.45181
G1 X55.596 Y23.817 E17.82897
G1 X55.68 Y23.559 E18.16923
G1 X55.791 Y23.28 E18.54578
G1 X55.913 Y23.022 E18.90367
G1 X56.052 Y22.772 E19.26238
G1 X56.204 Y22.534 E19.61652
G1 X56.394 Y22.278 E20.01631
G1 X56.698 Y21.924 E20.60146
G1 X56.815 Y21.796 E20.81893
G1 X56.909 Y21.709 E20.97955
G1 X57.204 Y21.45 E21.47184
G1 X57.419 Y21.283 E21.81324
G1 X57.65 Y21.127 E22.16279
G1 X57.918 Y20.969 E22.55293
G1 X58.175 Y20.839 E22.91411
G1 X58.445 Y20.723 E23.28262
G1 X58.701 Y20.631 E23.62376
G1 X58.993 Y20.547 E24.00479
G1 X59.254 Y20.491 E24.33954
G1 X59.574 Y20.443 E24.74532
G1 X60.042 Y20.407 E25.33394
G1 X60.234 Y20.4 E25.57488
G1 X69.807 Y20.4 E37.57978
G1 X69.933 Y20.404 E37.73786
G1 X70.31 Y20.428 E38.21159
G1 X70.608 Y20.465 E38.58817
G1 X70.892 Y20.52 E38.95093
G1 X71.183 Y20.596 E39.3281
G1 X71.441 Y20.68 E39.66835
G1 X71.72 Y20.791 E40.0449
G1 X71.978 Y20.913 E40.40279
G1 X72.237 Y21.057 E40.77441
G1 X72.456 Y21.196 E41.0997
G1 X72.722 Y21.394 E41.51554
G1 X73.076 Y21.698 E42.10069
G1 X73.204 Y21.815 E42.31816
G1 X73.291 Y21.909 E42.47878
G1 X73.55 Y22.204 E42.97107
G1 X73.717 Y22.419 E43.31247
G1 X73.873 Y22.65 E43.66202
G1 X74.031 Y22.918 E44.05216
G1 X74.163 Y23.177 E44.41671
G1 X74.266 Y23.416 E44.74307
G1 X74.371 Y23.708 E45.1322
G1 X74.452 Y23.99 E45.50014
G1 X74.508 Y24.244 E45.82632
G1 X74.557 Y24.575 E46.24593
G1 X74.592 Y25.03 E46.8182
G1 X74.6 Y25.236 E47.07673
G1 X74.6 Y44.807 E71.61949
G1 X74.596 Y44.933 E71.77757
G1 X74.572 Y45.31 E72.2513
G1 X74.535 Y45.608 E72.62788
G1 X74.48 Y45.892 E72.99064
G1 X74.404 Y46.183 E73.3678
G1 X74.32 Y46.441 E73.70806
G1 X74.209 Y46.72 E74.08461
G1 X74.087 Y46.978 E74.4425
G1 X73.672 Y47.727 E75.51632
G1 X73.688 Y47.736 E75.53934
G1 X73.638 Y47.833 E75.67619
G1 X73.404 Y48.475 E76.53309
G1 X73.252 Y49.14 E77.38853
G1 X73.185 Y49.819 E78.24416
G1 X73.205 Y50.502 E79.10104
G1 X73.311 Y51.177 E79.95788
G1 X73.503 Y51.839 E80.82227
G1 X73.919 Y52.726 E82.05086
G1 X74.029 Y52.913 E82.32292
G1 X74.163 Y53.177 E82.6942
G1 X74.266 Y53.416 E83.02056
G1 X74.371 Y53.708 E83.40969
G1 X74.452 Y53.99 E83.77763
G1 X74.508 Y54.244 E84.1038
G1 X74.557 Y54.574 E84.52217
G1 X74.593 Y55.035 E85.10205
G1 X74.6 Y55.22 E85.33421
G1 X74.6 Y74.798 E109.88575
G1 X74.596 Y74.934 E110.05637
G1 X74.572 Y75.31 E110.52885
G1 X74.535 Y75.608 E110.90542
G1 X74.48 Y75.892 E111.26818
G1 X74.404 Y76.183 E111.64535
G1 X74.32 Y76.441 E111.98561
G1 X74.209 Y76.72 E112.36216
G1 X74.087 Y76.978 E112.72005
G1 X73.943 Y77.237 E113.09167
G1 X73.804 Y77.456 E113.41695
G1 X73.606 Y77.722 E113.83279
G1 X73.302 Y78.076 E114.41795
G1 X73.185 Y78.204 E114.63542
G1 X73.091 Y78.291 E114.79604
G1 X72.798 Y78.548 E115.28479
G1 X72.581 Y78.717 E115.6297
G1 X72.35 Y78.873 E115.97925
G1 X72.082 Y79.031 E116.3694
G1 X71.825 Y79.161 E116.73057
G1 X71.556 Y79.276 E117.09744
G1 X71.299 Y79.369 E117.44018
G1 X71.007 Y79.453 E117.82121
G1 X70.746 Y79.509 E118.15596
G1 X70.426 Y79.557 E118.56174
G1 X69.958 Y79.593 E119.15037
G1 X69.766 Y79.6 E119.3913
G1 X50.193 Y79.6 E143.93657
G1 X50.067 Y79.596 E144.09466
G1 X49.69 Y79.572 E144.56839
G1 X49.392 Y79.535 E144.94496
G1 X49.108 Y79.48 E145.30772
G1 X48.817 Y79.404 E145.68489
G1 X48.557 Y79.319 E146.02792
G1 X48.28 Y79.209 E146.40167
G1 X48.021 Y79.086 E146.76124
G1 X47.763 Y78.943 E147.13115
G1 X47.544 Y78.804 E147.45643
G1 X47.278 Y78.606 E147.87227
G1 X46.924 Y78.302 E148.45743
G1 X46.796 Y78.185 E148.6749
G1 X46.709 Y78.091 E148.83552
G1 X46.45 Y77.796 E149.32781
G1 X46.283 Y77.581 E149.66921
G1 X46.124 Y77.345 E150.02606
G1 X45.969 Y77.082 E150.40889
G1 X45.839 Y76.825 E150.77006
G1 X45.723 Y76.555 E151.13858
G1 X45.631 Y76.299 E151.47971
G1 X45.547 Y76.007 E151.86074
G1 X45.491 Y75.746 E152.1955
G1 X45.443 Y75.426 E152.60128
G1 X45.404 Y74.919 E153.23895
G1 X45.399 Y74.783 E153.40962
G1 X45.331 Y74.116 E154.25039
G1 X45.178 Y73.45 E155.10734
G1 X44.94 Y72.809 E155.9648
G1 X44.625 Y72.204 E156.82017
G1 X44.235 Y71.644 E157.67595
G1 X43.778 Y71.136 E158.53284
G1 X43.26 Y70.691 E159.38922
G1 X42.69 Y70.315 E160.24554
G1 X42.078 Y70.013 E161.10136
G1 X41.432 Y69.791 E161.95797
G1 X40.762 Y69.653 E162.81581
G1 X40.018 Y69.6 E163.75118
G1 X30.193 Y69.6 E176.0721
G1 X30.067 Y69.596 E176.23018
G1 X29.69 Y69.572 E176.70391
G1 X29.392 Y69.535 E177.08049
G1 X29.108 Y69.48 E177.44325
G1 X28.817 Y69.404 E177.82041
G1 X28.557 Y69.319 E178.16345
G1 X28.28 Y69.209 E178.5372
G1 X28.021 Y69.086 E178.89676
G1 X27.763 Y68.943 E179.26668
G1 X27.544 Y68.804 E179.59196
G1 X27.278 Y68.606 E180.0078
G1 X26.924 Y68.302 E180.59296
G1 X26.796 Y68.185 E180.81043
G1 X26.709 Y68.091 E180.97105
G1 X26.45 Y67.796 E181.46334
G1 X26.283 Y67.581 E181.80473
G1 X26.126 Y67.348 E182.15707
G1 X25.969 Y67.082 E182.54441
G1 X25.839 Y66.825 E182.90558
G1 X25.723 Y66.555 E183.2741
G1 X25.631 Y66.299 E183.61523
G1 X25.547 Y66.007 E183.99626
G1 X25.491 Y65.746 E184.33102
G1 X25.443 Y65.426 E184.7368
G1 X25.406 Y64.948 E185.33802
G1 X25.4 Y64.78 E185.54883
G1 X25.4 Y55.193 E197.57129
G1 X25.404 Y55.067 E197.72937
G1 X25.428 Y54.69 E198.2031
G1 X25.465 Y54.392 E198.57968
G1 X25.52 Y54.108 E198.94244
G1 X25.596 Y53.817 E199.31961
G1 X25.68 Y53.559 E199.65986
G1 X25.791 Y53.28 E200.03641
G1 X25.913 Y53.022 E200.3943
G1 X26.059 Y52.759 E200.77153
G1 X26.196 Y52.544 E201.09123
G1 X26.394 Y52.278 E201.50707
G1 X26.698 Y51.924 E202.09223
G1 X26.815 Y51.796 E202.3097
G1 X26.909 Y51.709 E202.47032
G1 X27.204 Y51.45 E202.96261
G1 X27.419 Y51.283 E203.304
G1 X27.65 Y51.127 E203.65356
G1 X27.918 Y50.969 E204.0437
G1 X28.175 Y50.839 E204.40487
G1 X28.445 Y50.723 E204.77339
G1 X28.701 Y50.631 E205.11452
G1 X28.993 Y50.547 E205.49555
G1 X29.254 Y50.491 E205.8303
G1 X29.574 Y50.443 E206.23608
G1 X30.042 Y50.407 E206.82471
G1 X30.234 Y50.4 E207.06564
G1 X40.013 Y50.4 E219.32887
G1 X40.681 Y50.358 E220.16822
G1 X41.352 Y50.229 E221.02509
G1 X42.001 Y50.016 E221.88167
G1 X42.618 Y49.724 E222.73769
G1 X43.193 Y49.356 E223.59379
G1 X43.717 Y48.918 E224.45023
G1 X44.181 Y48.418 E225.30565
G1 X44.58 Y47.862 E226.16385
G1 X44.904 Y47.262 E227.01897
G1 X45.15 Y46.626 E227.87412
G1 X45.316 Y45.957 E228.73851
G1 X45.4 Y45.018 E229.92075
G1 X45.4 Y35.193 E242.24167
G1 X45.404 Y35.067 E242.39975
G1 X45.428 Y34.69 E242.87348
G1 X45.465 Y34.392 E243.25006
G1 X45.52 Y34.108 E243.61282
G1 X45.596 Y33.817 E243.98998
G1 X45.68 Y33.559 E244.33024
G1 X45.791 Y33.28 E244.70679
G1 X45.913 Y33.022 E245.06468
G1 X46.059 Y32.759 E245.44191
G1 X46.196 Y32.544 E245.76161
G0 F7200 X46.4 Y32.271
G1 F1350 X46.4 Y77.731 E302.77014
G0 F7200 X48 Y79.074
G1 F1350 X48 Y30.927 E363.14826
G0 F7200 X49.6 Y30.44
G1 F1350 X49.6 Y79.56 E424.74656
G0 F7200 X51.2 Y79.6
G1 F1350 X51.2 Y30.259 E486.62201
G0 F7200 X52.8 Y29.624
G1 F1350 X52.8 Y79.6 E549.29377
G0 F7200 X54.4 Y79.6
G1 F1350 X54.4 Y28.128 E613.84156
G0 F7200 X56 Y22.865
G1 F1350 X56 Y79.6 E684.98936
G0 F7200 X57.6 Y79.6
G1 F1350 X57.6 Y21.16 E758.27529
G0 F7200 X59.2 Y20.502
G1 F1350 X59.2 Y79.6 E832.38637
G0 F7200 X60.8 Y79.6
G1 F1350 X60.8 Y20.4 E906.62537
G0 F7200 X62.4 Y20.4
G1 F1350 X62.4 Y79.6 E980.86436
G0 F7200 X64 Y79.6
G1 F1350 X64 Y20.4 E1055.10336
G0 F7200 X65.6 Y20.4
G1 F1350 X65.6 Y79.6 E1129.34236
G0 F7200 X67.2 Y79.6
G1 F1350 X67.2 Y20.4 E1203.58135
G0 F7200 X68.8 Y20.4
G1 F1350 X68.8 Y79.6 E1277.82035
G0 F7200 X70.4 Y79.559
G1 F1350 X70.4 Y20.44 E1351.95777
G0 F7200 X72 Y20.926
G1 F1350 X72 Y79.073 E1424.87626
G0 F7200 X73.6 Y77.729
G1 F1350 X73.6 Y52.046 E1457.0837
G0 F7200 X73.6 Y47.938
G1 F1350 X73.6 Y22.269 E1489.27358
G0 F7200 X44.8 Y47.454
G1 F1350 X44.8 Y72.54 E1520.73235
G0 F7200 X43.2 Y70.651
G1 F1350 X43.2 Y49.35 E1547.4446
G0 F7200 X41.6 Y50.147
G1 F1350 X41.6 Y69.848 E1572.15038
G0 F7200 X40 Y69.6
G92 E0
G1 F1350 X40 Y50.4 E24.07751
G0 F7200 X38.4 Y50.4
G1 F1350 X38.4 Y69.6 E48.15502
G0 F7200 X36.8 Y69.6
G1 F1350 X36.8 Y50.4 E72.23254
G0 F7200 X35.2 Y50.4
G1 F1350 X35.2 Y69.6 E96.31005
G0 F7200 X33.6 Y69.6
G1 F1350 X33.6 Y50.4 E120.38756
G0 F7200 X32 Y50.4
G1 F1350 X32 Y69.6 E144.46507
G0 F7200 X30.4 Y69.6
G1 F1350 X30.4 Y50.4 E168.54259
G0 F7200 X28.8 Y50.602
G1 F1350 X28.8 Y69.398 E192.11347
G0 F7200 X27.2 Y68.539
G1 F1350 X27.2 Y51.453 E213.53995
G0 F7200 X25.6 Y53.804
G1 F1350 X25.6 Y66.191 E229.0737
G0 F600 X25.6 Y66.191 Z10.27
G0 F7200 X25.865 Y66.878
;TIME_ELAPSED:68.179898
;LAYER:-8
;TYPE:SUPPORT
G1 F1350 X28.12 Y69.133 E229.18168
G1 X28.021 Y69.085 E229.18541
G1 X27.763 Y68.942 E229.19539
G1 X27.543 Y68.803 E229.20421
G1 X27.278 Y68.605 E229.21541
G1 X26.923 Y68.3 E229.23125
G1 X26.795 Y68.184 E229.2371
G1 X26.708 Y68.09 E229.24144
G1 X26.449 Y67.795 E229.25473
G1 X26.282 Y67.58 E229.26395
G1 X26.126 Y67.347 E229.27344
G1 X25.968 Y67.081 E229.28392
G0 F7200 X28.12 Y69.133
G1 F1350 X28.28 Y69.208 E229.2899
G1 X28.556 Y69.318 E229.29996
G1 X28.816 Y69.403 E229.30922
G1 X29.108 Y69.479 E229.31944
G1 X29.391 Y69.534 E229.3292
G1 X29.689 Y69.57 E229.33936
G1 X29.992 Y69.59 E229.34965
G1 X25.409 Y65.007 E229.5691
G1 X25.405 Y64.947 E229.57113
G1 X25.399 Y64.778 E229.57686
G1 X25.399 Y63.583 E229.61732
G1 X31.415 Y69.599 E229.90539
G1 X32.829 Y69.599 E229.95327
G1 X25.399 Y62.169 E230.30904
G1 X25.399 Y60.755 E230.35692
G1 X34.243 Y69.599 E230.7804
G1 X35.657 Y69.599 E230.82828
G1 X25.399 Y59.341 E231.31947
G1 X25.399 Y57.926 E231.36738
G1 X37.072 Y69.599 E231.92633
G1 X38.486 Y69.599 E231.97421
G1 X25.399 Y56.512 E232.60087
G1 X25.399 Y55.191 E232.64559
G1 X25.402 Y55.101 E232.64864
G1 X39.9 Y69.599 E233.34286
G1 X40.018 Y69.599 E233.34686
G1 X40.761 Y69.652 E233.37208
G1 X41.432 Y69.79 E233.39527
G1 X41.543 Y69.828 E233.39925
G1 X25.582 Y53.866 E234.16354
G1 X25.595 Y53.816 E234.16529
G1 X25.679 Y53.558 E234.17448
G1 X25.791 Y53.279 E234.18466
G1 X25.913 Y53.02 E234.19435
G1 X25.997 Y52.867 E234.20026
G1 X52.728 Y79.599 E235.48027
G1 X54.143 Y79.599 E235.52818
G1 X26.591 Y52.047 E236.84748
G1 X26.698 Y51.923 E236.85302
G1 X26.814 Y51.795 E236.85887
G1 X26.908 Y51.708 E236.86321
G1 X27.203 Y51.449 E236.8765
G1 X27.319 Y51.36 E236.88145
G1 X55.557 Y79.599 E238.23362
G1 X56.971 Y79.599 E238.2815
G1 X28.2 Y50.827 E239.65919
G1 X28.445 Y50.722 E239.66821
G1 X28.701 Y50.63 E239.67742
G1 X28.993 Y50.546 E239.68771
G1 X29.254 Y50.49 E239.69675
G1 X29.274 Y50.487 E239.69743
G1 X58.385 Y79.599 E241.0914
G1 X59.8 Y79.599 E241.13931
G1 X30.6 Y50.399 E242.53752
G1 X32.014 Y50.399 E242.5854
G1 X61.214 Y79.599 E243.98361
G1 X62.628 Y79.599 E244.03149
G1 X33.428 Y50.399 E245.42969
G1 X34.842 Y50.399 E245.47757
G1 X64.042 Y79.599 E246.87578
G1 X65.456 Y79.599 E246.92366
G1 X36.256 Y50.399 E248.32186
G1 X37.671 Y50.399 E248.36978
G1 X66.871 Y79.599 E249.76798
G1 X68.285 Y79.599 E249.81586
G1 X39.085 Y50.399 E251.21407
G1 X40.013 Y50.399 E251.24549
G1 X40.471 Y50.37 E251.26103
G1 X69.699 Y79.599 E252.6606
G1 X69.765 Y79.599 E252.66284
G1 X69.958 Y79.591 E252.66938
G1 X70.425 Y79.555 E252.68524
G1 X70.746 Y79.508 E252.69622
G1 X70.973 Y79.459 E252.70408
G1 X41.646 Y50.131 E254.1084
G1 X42 Y50.015 E254.12101
G1 X42.618 Y49.723 E254.14415
G1 X42.639 Y49.71 E254.14499
G1 X72 Y79.071 E255.55091
G1 X72.082 Y79.03 E255.55401
G1 X72.349 Y78.872 E255.56452
G1 X72.58 Y78.715 E255.57397
G1 X72.798 Y78.546 E255.58331
G1 X72.846 Y78.503 E255.5855
G1 X43.468 Y49.125 E256.99223
G1 X43.716 Y48.916 E257.00321
G1 X44.177 Y48.42 E257.02614
G1 X73.547 Y77.79 E258.43249
G1 X73.606 Y77.721 E258.43556
G1 X73.803 Y77.455 E258.44677
G1 X73.942 Y77.236 E258.45555
G1 X74.087 Y76.977 E258.4656
G1 X74.107 Y76.936 E258.46714
G1 X44.738 Y47.567 E259.87345
G1 X44.904 Y47.261 E259.88523
G1 X45.15 Y46.625 E259.90832
G1 X45.162 Y46.576 E259.91003
G1 X74.48 Y75.894 E261.31389
G0 F7200 X74.48 Y75.891
G1 F1350 X74.535 Y75.607 E261.32368
G1 X74.572 Y75.308 E261.33388
G1 X74.595 Y74.933 E261.34661
G1 X74.599 Y74.797 E261.35121
G1 X74.599 Y74.599 E261.35792
G1 X45.367 Y45.367 E262.75766
G1 X45.399 Y45.017 E262.76956
G1 X45.399 Y43.984 E262.80453
G1 X74.599 Y73.185 E264.20277
G1 X74.599 Y71.771 E264.25064
G1 X45.399 Y42.57 E265.64888
G1 X45.399 Y41.156 E265.69675
G1 X74.599 Y70.357 E267.09499
G1 X74.599 Y68.942 E267.1429
G1 X45.399 Y39.742 E268.5411
G1 X45.399 Y38.328 E268.58898
G1 X74.599 Y67.528 E269.98719
G1 X74.599 Y66.114 E270.03507
G1 X45.399 Y36.913 E271.4333
G1 X45.399 Y35.499 E271.48118
G1 X74.599 Y64.7 E272.87941
G1 X74.599 Y63.286 E272.92728
G1 X45.503 Y34.189 E274.32054
G1 X45.519 Y34.108 E274.32333
G1 X45.595 Y33.816 E274.33355
G1 X45.679 Y33.559 E274.3427
G1 X45.79 Y33.279 E274.3529
G1 X45.86 Y33.132 E274.35842
G1 X74.599 Y61.871 E275.73455
G1 X74.599 Y60.457 E275.78243
G1 X46.405 Y32.263 E277.13246
G1 X46.697 Y31.924 E277.14761
G1 X46.814 Y31.795 E277.15351
G1 X46.908 Y31.708 E277.15785
G1 X47.098 Y31.542 E277.16639
G1 X74.599 Y59.043 E278.48324
G1 X74.599 Y57.629 E278.53112
G1 X47.932 Y30.962 E279.80804
G1 X48.174 Y30.839 E279.81723
G1 X48.444 Y30.723 E279.82718
G1 X48.7 Y30.631 E279.83639
G1 X48.945 Y30.561 E279.84502
G1 X74.599 Y56.214 E281.07341
G1 X74.599 Y55.22 E281.10706
G1 X74.591 Y55.034 E281.11337
G1 X74.572 Y54.773 E281.12223
G1 X50.198 Y30.399 E282.28935
G1 X50.217 Y30.398 E282.28999
G1 X50.884 Y30.332 E282.31269
G1 X51.421 Y30.208 E282.33135
G1 X73.899 Y52.686 E283.40768
G1 X73.502 Y51.839 E283.43935
G1 X73.31 Y51.176 E283.46272
G1 X73.218 Y50.591 E283.48277
G1 X52.439 Y29.812 E284.47775
G1 X52.796 Y29.627 E284.49137
G1 X53.31 Y29.269 E284.51258
G1 X73.245 Y49.204 E285.46714
G1 X73.251 Y49.14 E285.46932
G1 X73.403 Y48.474 E285.49245
G1 X73.544 Y48.088 E285.50636
G1 X54.036 Y28.58 E286.44048
G1 X54.31 Y28.263 E286.45467
G1 X54.637 Y27.767 E286.47478
G1 X74.001 Y47.131 E287.40201
G1 X74.085 Y46.978 E287.40792
G1 X74.208 Y46.719 E287.41762
G1 X74.319 Y46.44 E287.42779
G1 X74.403 Y46.182 E287.43698
G1 X74.416 Y46.132 E287.43873
G1 X55.084 Y26.8 E288.36442
G1 X55.21 Y26.435 E288.37749
G1 X55.349 Y25.768 E288.40056
G1 X55.358 Y25.66 E288.40423
G1 X74.596 Y44.897 E289.3254
G1 X74.599 Y44.807 E289.32845
G1 X74.599 Y43.486 E289.37317
G1 X55.47 Y24.357 E290.28914
G1 X55.519 Y24.108 E290.29774
G1 X55.595 Y23.816 E290.30795
G1 X55.679 Y23.559 E290.31711
G1 X55.79 Y23.28 E290.32727
G1 X55.794 Y23.268 E290.3277
G1 X74.599 Y42.072 E291.22813
G1 X74.599 Y40.657 E291.27604
G1 X56.318 Y22.377 E292.15139
G1 X56.393 Y22.278 E292.15559
G1 X56.697 Y21.924 E292.17139
G1 X56.814 Y21.795 E292.17729
G1 X56.908 Y21.708 E292.18162
G1 X56.992 Y21.636 E292.18537
G1 X74.599 Y39.243 E293.02846
G1 X74.599 Y37.829 E293.07634
G1 X57.805 Y21.035 E293.8805
G1 X57.916 Y20.969 E293.88487
G1 X58.174 Y20.839 E293.89465
G1 X58.444 Y20.723 E293.9046
G1 X58.7 Y20.631 E293.91381
G1 X58.789 Y20.605 E293.91695
G1 X74.599 Y36.415 E294.674
G1 X74.599 Y35.001 E294.72187
