;FLAVOR:Marlin
;TIME:6666
;Filament used: 0m
;Layer height: 0.282843
;MINX:2.14748e+06
;MINY:2.14748e+06
;MINZ:2.14748e+06
;MAXX:-2.14748e+06
;MAXY:-2.14748e+06
;MAXZ:-2.14748e+06

;Generated with Cura_SteamEngine 4.7.1
M104 S210
M105
M109 S210
M82 ;absolute extrusion mode

G92 E0
G92 E0
G1 F4500 E-6.5
;LAYER_COUNT:251
;LAYER:0
M107
;MESH:/tmp/8b88iu31.stl
G0 F6300 X105.006 Y0.2 Z0.283
;TYPE:WALL-OUTER
G1 F4500 E0
G1 F300 X124.8 Y0.2 E0.98808
G1 X124.8 Y0.24 E0.99007
G1 X105.064 Y0.241 E1.97525
G1 X105.006 Y0.2 E1.9788
G0 F6300 X105.206 Y0.2
;MESH:NONMESH
G0 F600 X105.206 Y0.2 Z0.566
G0 F6300 X104.441 Y0.2
;TIME_ELAPSED:10.332569
;LAYER:1
M106 S38.3
;TYPE:WALL-OUTER
;MESH:/tmp/8b88iu31.stl
G1 F407.5 X124.8 Y0.2 E2.65632
G1 X124.8 Y0.641 E2.67099
G1 X105.064 Y0.642 E3.32778
G1 X104.441 Y0.2 E3.3532
G0 F6750 X104.641 Y0.2
;MESH:NONMESH
G0 F600 X104.641 Y0.2 Z0.849
G0 F6750 X103.874 Y0.2
;TIME_ELAPSED:16.588900
;LAYER:2
M106 S76.5
;TYPE:WALL-OUTER
;MESH:/tmp/8b88iu31.stl
G1 F515 X124.8 Y0.2 E3.845622 ; Adjusted E for belt wall
G92 E4.049590 ; Reset E to pre-compensated value
G1 X124.8 Y0.933 E4.07398
G1 X104.91 Y0.933 E4.7359
G1 X103.874 Y0.2 E4.77813
G0 F7200 X104.074 Y0.2
;MESH:NONMESH
G0 F600 X104.074 Y0.2 Z1.132
G0 F7200 X103.308 Y0.2
;TIME_ELAPSED:21.750336
;LAYER:3
M106 S114.8
;TYPE:WALL-OUTER
;MESH:/tmp/8b88iu31.stl
G1 F600 X124.8 Y0.2 E5.283867 ; Adjusted E for belt wall
G92 E5.493350 ; Reset E to pre-compensated value
G1 X124.8 Y0.933 E5.51775
G1 X104.344 Y0.933 E6.19849
G1 X103.308 Y0.2 E6.24073
G0 F7650 X103.508 Y0.2
;MESH:NONMESH
G0 F600 X103.508 Y0.2 Z1.415
G0 F7650 X102.742 Y0.2
;TIME_ELAPSED:26.316510
;LAYER:4
M106 S153
;TYPE:WALL-OUTER
;MESH:/tmp/8b88iu31.stl
G1 F600 X124.8 Y0.2 E6.759789 ; Adjusted E for belt wall
G92 E6.974790 ; Reset E to pre-compensated value
G1 X124.8 Y0.933 E6.99918
G1 X103.778 Y0.933 E7.69876
G1 X102.742 Y0.2 E7.741
G0 F8100 X102.942 Y0.2
G1 F4500 E1.241
;MESH:NONMESH
G0 F600 X102.942 Y0.2 Z1.698
G0 F8100 X120.015 Y2.04
;TIME_ELAPSED:31.362009
;LAYER:5
;TYPE:SUPPORT
G1 F4500 E7.741
G1 F976.1 X118.255 Y2.04 E7.79957
G1 X118.255 Y2.243 E7.80632
G1 X120.015 Y2.243 E7.86489
G1 X120.015 Y2.04 E7.87165
G1 X121.745 Y2.04 E7.92922
G1 X121.745 Y2.242 E7.93594
G1 X120.015 Y2.243 E7.99352
G1 F4500 E1.49352
;MESH:/tmp/8b88iu31.stl
G0 F8550 X124.8 Y0.933
;TYPE:WALL-OUTER
G1 F4500 E7.99352
G1 F600 X103.212 Y0.933 E8.71194
G1 X102.176 Y0.2 E8.75417
G1 X124.8 Y0.2 E9.286544 ; Adjusted E for belt wall
G92 E9.507060 ; Reset E to pre-compensated value
G1 X124.8 Y0.933 E9.53146
G0 F8550 X124.6 Y0.933
G1 F4500 E3.03146
;MESH:NONMESH
G0 F600 X124.6 Y0.933 Z1.981
G0 F8550 X120.015 Y2.04
;TIME_ELAPSED:37.321341
;LAYER:6
;TYPE:SUPPORT
G1 F4500 E9.53146
G1 F1000 X118.255 Y2.04 E9.59003
G1 X118.255 Y2.644 E9.61013
G1 X120.015 Y2.644 E9.6687
G1 X120.015 Y2.04 E9.6888
G1 X121.745 Y2.04 E9.74637
G1 X121.745 Y2.643 E9.76644
G1 X120.015 Y2.644 E9.82401
G1 F4500 E3.32401
;MESH:/tmp/8b88iu31.stl
G0 F9000 X124.8 Y0.933
;TYPE:WALL-OUTER
G1 F4500 E9.82401
G1 F600 X102.645 Y0.933 E10.5613
G1 X101.608 Y0.2 E10.60356
G1 X124.8 Y0.2 E11.149305 ; Adjusted E for belt wall
G92 E11.375360 ; Reset E to pre-compensated value
G1 X124.8 Y0.933 E11.39975
G0 F9000 X124.6 Y0.933
G1 F4500 E4.89975
;MESH:NONMESH
G0 F600 X124.6 Y0.933 Z2.264
G0 F9000 X120.015 Y2.04
;TIME_ELAPSED:43.458710
;LAYER:7
;TYPE:SUPPORT
G1 F4500 E11.39975
G1 F1000 X118.255 Y2.04 E11.45832
G1 X118.255 Y3.044 E11.49173
G1 X120.015 Y3.044 E11.5503
G1 X120.015 Y2.04 E11.58371
G1 X121.745 Y2.04 E11.64129
G1 X121.745 Y3.043 E11.67467
G1 X120.015 Y3.044 E11.73224
G1 F4500 E5.23224
;MESH:/tmp/8b88iu31.stl
G0 F9000 X124.8 Y0.933
;TYPE:WALL-OUTER
G1 F4500 E11.73224
G1 F600 X102.08 Y0.933 E12.48833
G1 X101.044 Y0.2 E12.53056
G1 X124.8 Y0.2 E13.089577 ; Adjusted E for belt wall
G92 E13.321130 ; Reset E to pre-compensated value
G1 X124.8 Y0.933 E13.34552
G0 F9000 X124.6 Y0.933
G1 F4500 E6.84552
;MESH:NONMESH
G0 F600 X124.6 Y0.933 Z2.547
G0 F9000 X120.015 Y2.04
;TIME_ELAPSED:49.783809
;LAYER:8
;TYPE:SUPPORT
G1 F4500 E13.34552
G1 F1000 X118.255 Y2.04 E13.40409
G1 X118.255 Y3.444 E13.45082
G1 X120.015 Y3.444 E13.50939
G1 X120.015 Y2.04 E13.55611
G1 X121.745 Y2.04 E13.61368
G1 X121.745 Y3.443 E13.66037
G1 X120.015 Y3.444 E13.71794
G1 F4500 E7.21794
;MESH:/tmp/8b88iu31.stl
G0 F9000 X124.8 Y0.933
;TYPE:WALL-OUTER
G1 F4500 E13.71794
G1 F600 X101.514 Y0.933 E14.49287
G1 X100.478 Y0.2 E14.5351
G1 X124.8 Y0.2 E15.107439 ; Adjusted E for belt wall
G92 E15.344510 ; Reset E to pre-compensated value
G1 X124.8 Y0.933 E15.3689
G0 F9000 X124.6 Y0.933
G1 F4500 E8.8689
;MESH:NONMESH
G0 F600 X124.6 Y0.933 Z2.83
G0 F9000 X120.015 Y2.04
;TIME_ELAPSED:56.297473
;LAYER:9
;TYPE:SUPPORT
G1 F4500 E15.3689
G1 F1000 X118.255 Y2.04 E15.42747
G1 X118.255 Y3.844 E15.4875
G1 X120.015 Y3.844 E15.54607
G1 X120.015 Y2.04 E15.60611
G1 X121.745 Y2.04 E15.66368
G1 X121.745 Y3.843 E15.72368
G1 X120.015 Y3.844 E15.78125
G1 F4500 E9.28125
;MESH:/tmp/8b88iu31.stl
G0 F9000 X124.8 Y0.933
;TYPE:WALL-OUTER
G1 F4500 E15.78125
G1 F600 X100.948 Y0.933 E16.57502
G1 X99.912 Y0.2 E16.61725
G1 X124.8 Y0.2 E17.202904 ; Adjusted E for belt wall
G92 E17.445490 ; Reset E to pre-compensated value
G1 X124.8 Y0.933 E17.46988
G0 F9000 X124.6 Y0.933
G1 F4500 E10.96988
;MESH:NONMESH
G0 F600 X124.6 Y0.933 Z3.113
G0 F9000 X120.015 Y2.04
;TIME_ELAPSED:63.000086
;LAYER:10
;TYPE:SUPPORT
G1 F4500 E17.46988
G1 F1000 X118.255 Y2.04 E17.52845
G1 X118.255 Y4.244 E17.6018
G1 X120.015 Y4.244 E17.66037
G1 X120.015 Y2.04 E17.73371
G1 X121.745 Y2.04 E17.79129
G1 X121.745 Y4.243 E17.8646
G1 X120.015 Y4.244 E17.92217
G1 F4500 E11.42217
;MESH:/tmp/8b88iu31.stl
G0 F9000 X124.8 Y0.933
;TYPE:WALL-OUTER
G1 F4500 E17.92217
G1 F600 X100.382 Y0.933 E18.73477
G1 X99.348 Y0.2 E18.77695
G1 X124.8 Y0.2 E19.375877 ; Adjusted E for belt wall
G92 E19.623960 ; Reset E to pre-compensated value
G1 X124.8 Y0.933 E19.64835
G0 F9000 X124.6 Y0.933
G1 F4500 E13.14835
;MESH:NONMESH
G0 F600 X124.6 Y0.933 Z3.396
G0 F9000 X120.015 Y2.04
;TIME_ELAPSED:69.891606
;LAYER:11
;TYPE:SUPPORT
G1 F4500 E19.64835
G1 F1000 X118.255 Y2.04 E19.70692
G1 X118.255 Y4.644 E19.79358
G1 X118.854 Y4.643 E19.81351
G1 X119.004 Y4.645 E19.8185
G1 X120.015 Y4.645 E19.85215
G1 X120.015 Y2.04 E19.93884
G1 X121.745 Y2.04 E19.99641
G1 X121.745 Y4.643 E20.08303
G1 X121.01 Y4.645 E20.10749
G1 X120.015 Y4.645 E20.14061
G1 F4500 E13.64061
;MESH:/tmp/8b88iu31.stl
G0 F9000 X124.8 Y0.933
;TYPE:WALL-OUTER
G1 F4500 E20.14061
G1 F600 X99.816 Y0.933 E20.97204
G1 X98.78 Y0.2 E21.01427
G1 X124.8 Y0.2 E21.626561 ; Adjusted E for belt wall
G92 E21.880180 ; Reset E to pre-compensated value
G1 X124.8 Y0.933 E21.90458
G0 F9000 X124.6 Y0.933
G1 F4500 E15.40458
;MESH:NONMESH
G0 F600 X124.6 Y0.933 Z3.679
G0 F9000 X120.015 Y2.04
;TIME_ELAPSED:76.973091
;LAYER:12
;TYPE:SUPPORT
G1 F4500 E21.90458
G1 F1000 X118.255 Y2.04 E21.96315
G1 X118.255 Y5.045 E22.06315
G1 X120.015 Y5.045 E22.12172
G1 X120.015 Y2.04 E22.22172
G1 X121.745 Y2.04 E22.27929
G1 X121.745 Y5.044 E22.37926
G1 X120.015 Y5.045 E22.43684
G1 F4500 E15.93684
;MESH:/tmp/8b88iu31.stl
G0 F9000 X124.8 Y0.933
;TYPE:WALL-OUTER
G1 F4500 E22.43684
G1 F600 X99.249 Y0.933 E23.28714
G1 X98.212 Y0.2 E23.3294
G1 X124.8 Y0.2 E23.955055 ; Adjusted E for belt wall
G92 E24.214210 ; Reset E to pre-compensated value
G1 X124.8 Y0.933 E24.2386
G0 F9000 X124.6 Y0.933
G1 F4500 E17.7386
;MESH:NONMESH
G0 F600 X124.6 Y0.933 Z3.962
G0 F9000 X120.015 Y2.04
;TIME_ELAPSED:84.244823
;LAYER:13
;TYPE:SUPPORT
G1 F4500 E24.2386
G1 F1000 X118.255 Y2.04 E24.29717
G1 X118.255 Y5.445 E24.41049
G1 X120.015 Y5.445 E24.46906
G1 X120.015 Y2.04 E24.58237
G1 X121.745 Y2.04 E24.63994
G1 X121.745 Y5.444 E24.75322
G1 X120.015 Y5.445 E24.8108
G1 F4500 E18.3108
;MESH:/tmp/8b88iu31.stl
G0 F9000 X124.8 Y0.933
;TYPE:WALL-OUTER
G1 F4500 E24.8108
G1 F600 X98.683 Y0.933 E25.67993
G1 X97.646 Y0.2 E25.7222
G1 X124.8 Y0.2 E26.361170 ; Adjusted E for belt wall
G92 E26.625840 ; Reset E to pre-compensated value
G1 X124.8 Y0.933 E26.65024
G0 F9000 X124.6 Y0.933
G1 F4500 E20.15024
;MESH:NONMESH
G0 F600 X124.6 Y0.933 Z4.245
G0 F9000 X120.015 Y2.04
;TIME_ELAPSED:91.706462
;LAYER:14
;TYPE:SUPPORT
G1 F4500 E26.65024
G1 F1000 X118.255 Y2.04 E26.70881
G1 X118.255 Y5.845 E26.83543
G1 X120.015 Y5.845 E26.894
G1 X120.015 Y2.04 E27.02063
G1 X121.745 Y2.04 E27.0782
G1 X121.745 Y5.844 E27.20479
G1 X120.015 Y5.845 E27.26236
G1 F4500 E20.76236
;MESH:/tmp/8b88iu31.stl
G0 F9000 X124.8 Y0.933
;TYPE:WALL-OUTER
G1 F4500 E27.26236
G1 F600 X98.117 Y0.933 E28.15034
G1 X97.081 Y0.2 E28.19257
G1 X124.8 Y0.2 E28.844841 ; Adjusted E for belt wall
G92 E29.115020 ; Reset E to pre-compensated value
G1 X124.8 Y0.933 E29.13941
G0 F9000 X124.6 Y0.933
G1 F4500 E22.63941
;MESH:NONMESH
G0 F600 X124.6 Y0.933 Z4.528
G0 F9000 X120.015 Y2.04
;TIME_ELAPSED:99.357953
;LAYER:15
;TYPE:SUPPORT
G1 F4500 E29.13941
G1 F1000 X118.255 Y2.04 E29.19798
G1 X118.255 Y6.245 E29.33792
G1 X120.015 Y6.245 E29.39649
G1 X120.015 Y2.04 E29.53643
G1 X121.745 Y2.04 E29.594
G1 X121.745 Y6.244 E29.7339
G1 X120.015 Y6.245 E29.79148
G1 F4500 E23.29148
;MESH:/tmp/8b88iu31.stl
G0 F9000 X124.8 Y0.933
;TYPE:WALL-OUTER
G1 F4500 E29.79148
G1 F600 X97.551 Y0.933 E30.69829
G1 X96.515 Y0.2 E30.74052
G1 X124.8 Y0.2 E31.406113 ; Adjusted E for belt wall
G92 E31.681810 ; Reset E to pre-compensated value
G1 X124.8 Y0.933 E31.7062
G0 F9000 X124.6 Y0.933
G1 F4500 E25.2062
;MESH:NONMESH
G0 F600 X124.6 Y0.933 Z4.811
G0 F9000 X120.015 Y2.04
;TIME_ELAPSED:107.199569
;LAYER:16
;TYPE:SUPPORT
G1 F4500 E31.7062
G1 F1000 X118.255 Y2.04 E31.76477
G1 X118.255 Y6.645 E31.91802
G1 X118.784 Y6.644 E31.93562
G1 X119 Y6.646 E31.94281
G1 X120.015 Y6.646 E31.97659
G1 X120.015 Y2.04 E32.12987
G1 X121.745 Y2.04 E32.18744
G1 X121.745 Y6.644 E32.34066
G1 X121.01 Y6.646 E32.36512
G1 X120.015 Y6.646 E32.39823
G1 F4500 E25.89823
;MESH:/tmp/8b88iu31.stl
G0 F9000 X124.8 Y0.933
;TYPE:WALL-OUTER
G1 F4500 E32.39823
G1 F600 X96.985 Y0.933 E33.32387
G1 X95.949 Y0.2 E33.36611
G1 X124.8 Y0.2 E34.045017 ; Adjusted E for belt wall
G92 E34.326230 ; Reset E to pre-compensated value
G1 X124.8 Y0.933 E34.35062
G0 F9000 X124.6 Y0.933
G1 F4500 E27.85062
;MESH:NONMESH
G0 F600 X124.6 Y0.933 Z5.094
G0 F9000 X120.015 Y2.04
;TIME_ELAPSED:115.231448
;LAYER:17
;TYPE:SUPPORT
G1 F4500 E34.35062
G1 F1000 X118.255 Y2.04 E34.40919
G1 X118.255 Y7.045 E34.57575
G1 X118.771 Y7.044 E34.59292
G1 X118.999 Y7.046 E34.60051
G1 X120.015 Y7.046 E34.63432
G1 X120.015 Y2.04 E34.80091
G1 X121.745 Y2.04 E34.85849
G1 X121.745 Y7.044 E35.02501
G1 X121.01 Y7.046 E35.04947
G1 X120.015 Y7.046 E35.08259
G1 F4500 E28.58259
;MESH:/tmp/8b88iu31.stl
G0 F9000 X124.8 Y0.933
;TYPE:WALL-OUTER
G1 F4500 E35.08259
G1 F600 X96.42 Y0.933 E36.02703
G1 X95.385 Y0.2 E36.06924
G1 X124.8 Y0.2 E36.761420 ; Adjusted E for belt wall
G92 E37.048130 ; Reset E to pre-compensated value
G1 X124.8 Y0.933 E37.07252
G0 F9000 X124.6 Y0.933
G1 F4500 E30.57252
;MESH:NONMESH
G0 F600 X124.6 Y0.933 Z5.377
G0 F9000 X120.015 Y2.04
;TIME_ELAPSED:123.453178
;LAYER:18
;TYPE:SUPPORT
G1 F4500 E37.07252
G1 F1000 X118.255 Y2.04 E37.13109
G1 X118.255 Y7.446 E37.311
G1 X120.015 Y7.446 E37.36957
G1 X120.015 Y2.04 E37.54947
G1 X121.745 Y2.04 E37.60704
G1 X121.745 Y7.445 E37.78692
G1 X120.015 Y7.446 E37.84449
G1 F4500 E31.34449
;MESH:/tmp/8b88iu31.stl
G0 F9000 X124.8 Y0.933
;TYPE:WALL-OUTER
G1 F4500 E37.84449
G1 F600 X95.853 Y0.933 E38.8078
G1 X94.818 Y0.2 E38.85001
G1 X124.8 Y0.2 E39.555533 ; Adjusted E for belt wall
G92 E39.847770 ; Reset E to pre-compensated value
G1 X124.8 Y0.933 E39.87216
G0 F9000 X124.6 Y0.933
G1 F4500 E33.37216
;MESH:NONMESH
G0 F600 X124.6 Y0.933 Z5.66
G0 F9000 X120.015 Y2.04
;TIME_ELAPSED:131.865486
;LAYER:19
;TYPE:SUPPORT
G1 F4500 E39.87216
G1 F1000 X118.255 Y2.04 E39.93073
G1 X118.255 Y7.846 E40.12395
G1 X120.015 Y7.846 E40.18252
G1 X120.015 Y2.04 E40.37574
G1 X121.745 Y2.04 E40.43331
G1 X121.745 Y7.845 E40.62649
G1 X120.015 Y7.846 E40.68406
G1 F4500 E34.18406
;MESH:/tmp/8b88iu31.stl
G0 F9000 X124.8 Y0.933
;TYPE:WALL-OUTER
G1 F4500 E40.68406
G1 F600 X95.287 Y0.933 E41.66621
G1 X94.582 Y0.435 E41.69494
G1 X94.252 Y0.2 E41.70842
G1 X124.8 Y0.2 E42.427265 ; Adjusted E for belt wall
G92 E42.725020 ; Reset E to pre-compensated value
G1 X124.8 Y0.933 E42.74941
G0 F9000 X124.6 Y0.933
G1 F4500 E36.24941
;MESH:NONMESH
G0 F600 X124.6 Y0.933 Z5.943
G0 F9000 X120.015 Y2.04
;TIME_ELAPSED:140.468058
;LAYER:20
;TYPE:SUPPORT
G1 F4500 E42.74941
G1 F1000 X118.255 Y2.04 E42.80798
G1 X118.255 Y8.246 E43.01451
G1 X120.015 Y8.246 E43.07308
G1 X120.015 Y2.04 E43.27961
G1 X121.745 Y2.04 E43.33718
G1 X121.745 Y8.245 E43.54367
G1 X120.015 Y8.246 E43.60124
G1 F4500 E37.10124
;MESH:/tmp/8b88iu31.stl
G0 F9000 X124.8 Y0.933
;TYPE:WALL-OUTER
G1 F4500 E43.60124
G1 F600 X94.721 Y0.933 E44.60223
G1 X94.057 Y0.464 E44.62928
G1 X93.686 Y0.2 E44.64444
G1 X124.8 Y0.2 E45.376600 ; Adjusted E for belt wall
G92 E45.679870 ; Reset E to pre-compensated value
G1 X124.8 Y0.933 E45.70426
G0 F9000 X124.6 Y0.933
G1 F4500 E39.20426
;MESH:NONMESH
G0 F600 X124.6 Y0.933 Z6.226
G0 F9000 X120.015 Y2.04
;TIME_ELAPSED:149.260893
;LAYER:21
;TYPE:SUPPORT
G1 F4500 E45.70426
G1 F1000 X118.255 Y2.04 E45.76283
G1 X118.255 Y8.646 E45.98267
G1 X118.71 Y8.645 E45.99781
G1 X118.996 Y8.647 E46.00733
G1 X120.015 Y8.647 E46.04124
G1 X120.015 Y2.04 E46.26111
G1 X121.745 Y2.04 E46.31869
G1 X121.745 Y8.645 E46.53849
G1 X121.01 Y8.647 E46.56295
G1 X120.015 Y8.647 E46.59606
G1 F4500 E40.09606
;MESH:/tmp/8b88iu31.stl
G0 F9000 X124.8 Y0.933
;TYPE:WALL-OUTER
G1 F4500 E46.59606
G1 F600 X94.155 Y0.933 E47.61589
G1 X93.533 Y0.494 E47.64122
G1 X93.12 Y0.2 E47.65809
G1 X124.8 Y0.2 E48.403571 ; Adjusted E for belt wall
G92 E48.712360 ; Reset E to pre-compensated value
G1 X124.8 Y0.933 E48.73675
G0 F9000 X124.6 Y0.933
G1 F4500 E42.23675
;MESH:NONMESH
G0 F600 X124.6 Y0.933 Z6.509
G0 F9000 X120.015 Y2.04
;TIME_ELAPSED:158.244048
;LAYER:22
;TYPE:SUPPORT
G1 F4500 E48.73675
G1 F1000 X118.255 Y2.04 E48.79532
G1 X118.255 Y9.046 E49.02847
G1 X118.695 Y9.045 E49.04312
G1 X118.996 Y9.047 E49.05313
G1 X120.015 Y9.047 E49.08704
G1 X120.015 Y2.04 E49.32023
G1 X121.745 Y2.04 E49.3778
G1 X121.745 Y9.045 E49.61092
G1 X121.01 Y9.047 E49.63538
G1 X120.015 Y9.047 E49.66849
G1 F4500 E43.16849
;MESH:/tmp/8b88iu31.stl
G0 F9000 X124.8 Y0.933
;TYPE:WALL-OUTER
G1 F4500 E49.66849
G1 F600 X93.589 Y0.933 E50.70715
G1 X93.009 Y0.524 E50.73077
G1 X92.553 Y0.2 E50.74938
G1 X124.8 Y0.2 E51.508205 ; Adjusted E for belt wall
G92 E51.822520 ; Reset E to pre-compensated value
G1 X124.8 Y0.933 E51.84691
G0 F9000 X124.6 Y0.933
G1 F4500 E45.34691
;MESH:NONMESH
G0 F600 X124.6 Y0.933 Z6.792
G0 F9000 X120.015 Y2.04
;TIME_ELAPSED:167.417613
;LAYER:23
;TYPE:SUPPORT
G1 F4500 E51.84691
G1 F1000 X118.255 Y2.04 E51.90548
G1 X118.255 Y9.447 E52.15198
G1 X120.015 Y9.447 E52.21055
G1 X120.015 Y2.04 E52.45704
G1 X121.745 Y2.04 E52.51461
G1 X121.745 Y9.446 E52.76108
G1 X120.015 Y9.447 E52.81865
G1 F4500 E46.31865
;MESH:/tmp/8b88iu31.stl
G0 F9000 X124.8 Y0.933
;TYPE:WALL-OUTER
G1 F4500 E52.81865
G1 F600 X93.023 Y0.933 E53.87614
G1 X91.988 Y0.2 E53.91835
G1 X124.8 Y0.2 E54.690468 ; Adjusted E for belt wall
G92 E55.010290 ; Reset E to pre-compensated value
G1 X124.8 Y0.933 E55.03468
G0 F9000 X124.6 Y0.933
G1 F4500 E48.53468
;MESH:NONMESH
G0 F600 X124.6 Y0.933 Z7.075
G0 F9000 X120.015 Y2.04
;TIME_ELAPSED:176.781313
;LAYER:24
;TYPE:SUPPORT
G1 F4500 E55.03468
G1 F1000 X118.255 Y2.04 E55.09325
G1 X118.255 Y9.847 E55.35306
G1 X120.015 Y9.847 E55.41163
G1 X120.015 Y2.04 E55.67143
G1 X121.745 Y2.04 E55.72901
G1 X121.745 Y9.846 E55.98878
G1 X120.015 Y9.847 E56.04635
G1 F4500 E49.54635
;MESH:/tmp/8b88iu31.stl
G0 F9000 X124.8 Y0.933
;TYPE:WALL-OUTER
G1 F4500 E56.04635
G1 F600 X92.457 Y0.933 E57.12268
G1 X91.961 Y0.583 E57.14288
G1 X91.422 Y0.2 E57.16489
G1 X124.8 Y0.2 E57.950323 ; Adjusted E for belt wall
G92 E58.275660 ; Reset E to pre-compensated value
G1 X124.8 Y0.933 E58.30006
G0 F9000 X124.6 Y0.933
G1 F4500 E51.80006
;MESH:NONMESH
G0 F600 X124.6 Y0.933 Z7.358
G0 F9000 X120.015 Y2.04
;TIME_ELAPSED:186.335181
;LAYER:25
